(.../pcb-gcode-3.6.2.4/pcb-gcode.ulp)
(Copyright 2005 - 2012 by John Johnson)
(See readme.txt for licensing terms.)
(This file generated from the board:)
(.../Documents/eagle/Broot/Broot.brd)
(Current profile is .../pcb-gcode-3.6.2.4/profiles/mach.pp  )
(This file generated 7/20/2015 2:52:17 PM)
(Settings from pcb-machine.h)
(spindle on time = 3.0000)
(spindle speed = 18000.0000)
(tool change at 0.0000  0.0000  50.0000 )
(feed rate xy = F0     )
(feed rate z  = F508   )
(Z Axis Settings)
(  High     Up        Down     Drill)
(12.7000 	2.5400  	-0.0400 	-3.0000 )
(Settings from pcb-defaults.h)
(isolate min = 0.0000)
(isolate max = 0.0300)
(isolate step = 0.0200)
(Generated top outlines, top drill, )
(Unit of measure: mm)
( Tool|       Size       |  Min Sub |  Max Sub |   Count )
( T01 | 0.600mm 0.0236in | 0.0000in | 0.0000in |       0 )
( T02 | 0.965mm 0.0380in | 0.0000in | 0.0000in |       0 )
( T03 | 1.000mm 0.0394in | 0.0000in | 0.0000in |       0 )
(Metric Mode)
G21
(Absolute Coordinates)
G90
S18000
G00 Z12.7000 
G00 X0.0000  Y0.0000  
M03
G04 P3.000000
M05
G00 Z50.0000 
M06 T01  ; 0.6000  
G00 Z2.5400  
M03
G04 P3.000000
G82 X2.5400  Y3.8100  Z-3.0000 F508   R2.5400  P0.100000
G82 X2.5400  Y3.8100  
G82 X2.5400  Y7.6200  
G82 X2.5400  Y7.6200  
G82 X2.5400  Y11.4300 
G82 X2.5400  Y11.4300 
G82 X2.5400  Y15.2400 
G82 X2.5400  Y15.2400 
G82 X2.5400  Y19.0500 
G82 X2.5400  Y19.0500 
G82 X2.5400  Y22.8600 
G82 X2.5400  Y22.8600 
G82 X2.5400  Y26.6700 
G82 X2.5400  Y26.6700 
G82 X2.5400  Y30.4800 
G82 X2.5400  Y30.4800 
G82 X2.5400  Y34.2900 
G82 X2.5400  Y34.2900 
G82 X2.5400  Y38.1000 
G82 X2.5400  Y38.1000 
G82 X2.5400  Y41.9100 
G82 X2.5400  Y41.9100 
G82 X2.5400  Y45.7200 
G82 X2.5400  Y45.7200 
G82 X2.5400  Y49.5300 
G82 X2.5400  Y49.5300 
G82 X2.5400  Y53.3400 
G82 X2.5400  Y53.3400 
G82 X7.6200  Y53.3400 
G82 X7.6200  Y53.3400 
G82 X7.6200  Y49.5300 
G82 X7.6200  Y49.5300 
G82 X7.6200  Y45.7200 
G82 X7.6200  Y45.7200 
G82 X7.6200  Y41.9100 
G82 X7.6200  Y41.9100 
G82 X7.6200  Y38.1000 
G82 X7.6200  Y38.1000 
G82 X7.6200  Y34.2900 
G82 X7.6200  Y34.2900 
G82 X7.6200  Y30.4800 
G82 X7.6200  Y30.4800 
G82 X7.6200  Y26.6700 
G82 X7.6200  Y26.6700 
G82 X7.6200  Y22.8600 
G82 X7.6200  Y22.8600 
G82 X7.6200  Y19.0500 
G82 X7.6200  Y19.0500 
G82 X7.6200  Y15.2400 
G82 X7.6200  Y15.2400 
G82 X7.6200  Y11.4300 
G82 X7.6200  Y11.4300 
G82 X7.6200  Y7.6200  
G82 X7.6200  Y7.6200  
G82 X7.6200  Y3.8100  
G82 X7.6200  Y3.8100  
G82 X12.7000 Y3.8100  
G82 X12.7000 Y3.8100  
G82 X12.7000 Y7.6200  
G82 X12.7000 Y7.6200  
G82 X12.7000 Y11.4300 
G82 X12.7000 Y11.4300 
G82 X12.7000 Y15.2400 
G82 X12.7000 Y15.2400 
G82 X12.7000 Y19.0500 
G82 X12.7000 Y19.0500 
G82 X12.7000 Y22.8600 
G82 X12.7000 Y22.8600 
G82 X12.7000 Y26.6700 
G82 X12.7000 Y26.6700 
G82 X12.7000 Y30.4800 
G82 X12.7000 Y30.4800 
G82 X12.7000 Y34.2900 
G82 X12.7000 Y34.2900 
G82 X12.7000 Y38.1000 
G82 X12.7000 Y38.1000 
G82 X12.7000 Y41.9100 
G82 X12.7000 Y41.9100 
G82 X12.7000 Y45.7200 
G82 X12.7000 Y45.7200 
G82 X12.7000 Y49.5300 
G82 X12.7000 Y49.5300 
G82 X12.7000 Y53.3400 
G82 X12.7000 Y53.3400 
G82 X17.7800 Y53.3400 
G82 X17.7800 Y49.5300 
G82 X17.7800 Y49.5300 
G82 X17.7800 Y45.7200 
G82 X17.7800 Y45.7200 
G82 X17.7800 Y41.9100 
G82 X17.7800 Y41.9100 
G82 X17.7800 Y38.1000 
G82 X17.7800 Y38.1000 
G82 X17.7800 Y34.2900 
G82 X17.7800 Y34.2900 
G82 X17.7800 Y30.4800 
G82 X17.7800 Y30.4800 
G82 X17.7800 Y26.6700 
G82 X17.7800 Y26.6700 
G82 X17.7800 Y22.8600 
G82 X17.7800 Y22.8600 
G82 X17.7800 Y19.0500 
G82 X17.7800 Y19.0500 
G82 X17.7800 Y15.2400 
G82 X17.7800 Y15.2400 
G82 X17.7800 Y11.4300 
G82 X17.7800 Y11.4300 
G82 X17.7800 Y7.6200  
G82 X17.7800 Y7.6200  
G82 X17.7800 Y3.8100  
G82 X17.7800 Y3.8100  
G82 X34.2900 Y2.5400  
G82 X34.2900 Y5.0800  
G82 X36.8300 Y5.0800  
G82 X34.2900 Y7.6200  
G82 X34.2900 Y10.1600 
G82 X34.2900 Y12.7000 
G82 X36.8300 Y12.7000 
G82 X36.8300 Y10.1600 
G82 X36.8300 Y15.2400 
G82 X34.2900 Y15.2400 
G82 X34.2900 Y17.7800 
G82 X34.2900 Y20.3200 
G82 X34.2900 Y22.8600 
G82 X34.2900 Y25.4000 
G82 X34.2900 Y27.9400 
G82 X34.2900 Y30.4800 
G82 X34.2900 Y33.0200 
G82 X34.2900 Y35.5600 
G82 X36.8300 Y35.5600 
G82 X39.3700 Y35.5600 
G82 X39.3700 Y33.0200 
G82 X41.9100 Y33.0200 
G82 X41.9100 Y35.5600 
G82 X44.4500 Y35.5600 
G82 X46.9900 Y35.5600 
G82 X49.5300 Y35.5600 
G82 X49.5300 Y33.0200 
G82 X49.5300 Y30.4800 
G82 X49.5300 Y27.9400 
G82 X49.5300 Y25.4000 
G82 X49.5300 Y22.8600 
G82 X49.5300 Y20.3200 
G82 X49.5300 Y17.7800 
G82 X49.5300 Y15.2400 
G82 X49.5300 Y12.7000 
G82 X49.5300 Y10.1600 
G82 X49.5300 Y7.6200  
G82 X49.5300 Y5.0800  
G82 X49.5300 Y2.5400  
G82 X66.0400 Y3.8100  
G82 X66.0400 Y3.8100  
G82 X66.0400 Y7.6200  
G82 X66.0400 Y7.6200  
G82 X66.0400 Y11.4300 
G82 X66.0400 Y11.4300 
G82 X66.0400 Y15.2400 
G82 X66.0400 Y15.2400 
G82 X66.0400 Y19.0500 
G82 X66.0400 Y19.0500 
G82 X66.0400 Y22.8600 
G82 X66.0400 Y22.8600 
G82 X66.0400 Y26.6700 
G82 X66.0400 Y26.6700 
G82 X66.0400 Y30.4800 
G82 X66.0400 Y30.4800 
G82 X66.0400 Y34.2900 
G82 X66.0400 Y34.2900 
G82 X66.0400 Y38.1000 
G82 X66.0400 Y38.1000 
G82 X66.0400 Y41.9100 
G82 X66.0400 Y41.9100 
G82 X66.0400 Y45.7200 
G82 X66.0400 Y45.7200 
G82 X66.0400 Y49.5300 
G82 X66.0400 Y49.5300 
G82 X66.0400 Y53.3400 
G82 X66.0400 Y53.3400 
G82 X71.1200 Y53.3400 
G82 X71.1200 Y53.3400 
G82 X71.1200 Y49.5300 
G82 X71.1200 Y49.5300 
G82 X71.1200 Y45.7200 
G82 X71.1200 Y45.7200 
G82 X71.1200 Y41.9100 
G82 X71.1200 Y41.9100 
G82 X71.1200 Y38.1000 
G82 X71.1200 Y38.1000 
G82 X71.1200 Y34.2900 
G82 X71.1200 Y34.2900 
G82 X71.1200 Y30.4800 
G82 X71.1200 Y30.4800 
G82 X71.1200 Y26.6700 
G82 X71.1200 Y26.6700 
G82 X71.1200 Y22.8600 
G82 X71.1200 Y22.8600 
G82 X71.1200 Y19.0500 
G82 X71.1200 Y19.0500 
G82 X71.1200 Y15.2400 
G82 X71.1200 Y15.2400 
G82 X71.1200 Y11.4300 
G82 X71.1200 Y11.4300 
G82 X71.1200 Y7.6200  
G82 X71.1200 Y7.6200  
G82 X71.1200 Y3.8100  
G82 X71.1200 Y3.8100  
G82 X76.2000 Y3.8100  
G82 X76.2000 Y3.8100  
G82 X76.2000 Y7.6200  
G82 X76.2000 Y7.6200  
G82 X76.2000 Y11.4300 
G82 X76.2000 Y11.4300 
G82 X76.2000 Y15.2400 
G82 X76.2000 Y15.2400 
G82 X76.2000 Y19.0500 
G82 X76.2000 Y19.0500 
G82 X76.2000 Y22.8600 
G82 X76.2000 Y22.8600 
G82 X76.2000 Y26.6700 
G82 X76.2000 Y26.6700 
G82 X76.2000 Y30.4800 
G82 X76.2000 Y30.4800 
G82 X76.2000 Y34.2900 
G82 X76.2000 Y34.2900 
G82 X76.2000 Y38.1000 
G82 X76.2000 Y38.1000 
G82 X76.2000 Y41.9100 
G82 X76.2000 Y41.9100 
G82 X76.2000 Y45.7200 
G82 X76.2000 Y45.7200 
G82 X76.2000 Y49.5300 
G82 X76.2000 Y49.5300 
G82 X76.2000 Y53.3400 
G82 X76.2000 Y53.3400 
G82 X81.2800 Y53.3400 
G82 X81.2800 Y53.3400 
G82 X81.2800 Y49.5300 
G82 X81.2800 Y49.5300 
G82 X81.2800 Y45.7200 
G82 X81.2800 Y45.7200 
G82 X81.2800 Y41.9100 
G82 X81.2800 Y41.9100 
G82 X81.2800 Y38.1000 
G82 X81.2800 Y38.1000 
G82 X81.2800 Y34.2900 
G82 X81.2800 Y34.2900 
G82 X81.2800 Y30.4800 
G82 X81.2800 Y30.4800 
G82 X81.2800 Y26.6700 
G82 X81.2800 Y26.6700 
G82 X81.2800 Y22.8600 
G82 X81.2800 Y22.8600 
G82 X81.2800 Y19.0500 
G82 X81.2800 Y19.0500 
G82 X81.2800 Y15.2400 
G82 X81.2800 Y15.2400 
G82 X81.2800 Y11.4300 
G82 X81.2800 Y11.4300 
G82 X81.2800 Y7.6200  
G82 X81.2800 Y7.6200  
G82 X81.2800 Y3.8100  
G82 X81.2800 Y3.8100  
G82 X41.9100 Y17.7800 
G82 X39.3700 Y17.7800 
G82 X39.3700 Y20.3200 
G82 X39.3700 Y22.8600 
G82 X39.3700 Y25.4000 
G82 X41.9100 Y25.4000 
G82 X41.9100 Y22.8600 
G82 X41.9100 Y20.3200 
G82 X41.9100 Y27.9400 
G82 X41.9100 Y30.4800 
G82 X39.3700 Y30.4800 
G82 X39.3700 Y27.9400 
G82 X34.2900 Y41.9100 
G82 X34.2900 Y48.2600 
G82 X41.9100 Y48.2600 
G82 X49.5300 Y48.2600 
G82 X49.5300 Y41.9100 
M05
G00 Z50.0000 
G00 X0.0000  Y0.0000  
M06 T02  ; 0.9652  
G00 Z2.5400  
M03
G04 P3.000000
G82 X34.2900 Y2.5400  Z-3.0000 F508   R2.5400  P0.100000
G82 X34.2900 Y5.0800  
G82 X36.8300 Y5.0800  
G82 X34.2900 Y7.6200  
G82 X34.2900 Y10.1600 
G82 X34.2900 Y12.7000 
G82 X36.8300 Y12.7000 
G82 X36.8300 Y10.1600 
G82 X36.8300 Y15.2400 
G82 X34.2900 Y15.2400 
G82 X34.2900 Y17.7800 
G82 X34.2900 Y20.3200 
G82 X34.2900 Y22.8600 
G82 X34.2900 Y25.4000 
G82 X34.2900 Y27.9400 
G82 X34.2900 Y30.4800 
G82 X34.2900 Y33.0200 
G82 X34.2900 Y35.5600 
G82 X36.8300 Y35.5600 
G82 X39.3700 Y35.5600 
G82 X39.3700 Y33.0200 
G82 X41.9100 Y33.0200 
G82 X41.9100 Y35.5600 
G82 X44.4500 Y35.5600 
G82 X46.9900 Y35.5600 
G82 X49.5300 Y35.5600 
G82 X49.5300 Y33.0200 
G82 X49.5300 Y30.4800 
G82 X49.5300 Y27.9400 
G82 X49.5300 Y25.4000 
G82 X49.5300 Y22.8600 
G82 X49.5300 Y20.3200 
G82 X49.5300 Y17.7800 
G82 X49.5300 Y15.2400 
G82 X49.5300 Y12.7000 
G82 X49.5300 Y10.1600 
G82 X49.5300 Y7.6200  
G82 X49.5300 Y5.0800  
G82 X49.5300 Y2.5400  
G82 X41.9100 Y17.7800 
G82 X41.9100 Y20.3200 
G82 X41.9100 Y22.8600 
G82 X39.3700 Y22.8600 
G82 X39.3700 Y25.4000 
G82 X41.9100 Y25.4000 
G82 X41.9100 Y27.9400 
G82 X39.3700 Y27.9400 
G82 X39.3700 Y30.4800 
G82 X41.9100 Y30.4800 
G82 X39.3700 Y20.3200 
G82 X39.3700 Y17.7800 
M05
G00 Z50.0000 
G00 X0.0000  Y0.0000  
M06 T03  ; 1.0000  
G00 Z2.5400  
M03
G04 P3.000000
G82 X17.7800 Y53.3400 Z-3.0000 F508   R2.5400  P0.100000
G82 X34.2900 Y48.2600 
G82 X34.2900 Y41.9100 
G82 X41.9100 Y48.2600 
G82 X49.5300 Y48.2600 
G82 X49.5300 Y41.9100 
T01 
G00 Z12.7000 
M05
M02
