(.../pcb-gcode-3.6.2.4/pcb-gcode.ulp)
(Copyright 2005 - 2012 by John Johnson)
(See readme.txt for licensing terms.)
(This file generated from the board:)
(.../Documents/eagle/Broot/Broot.brd)
(Current profile is .../pcb-gcode-3.6.2.4/profiles/mach.pp  )
(This file generated 7/20/2015 2:52:05 PM)
(Settings from pcb-machine.h)
(spindle on time = 3.0000)
(  Tool Size)
(0.1778  )
(spindle speed = 18000.0000)
(tool change at 0.0000  0.0000  50.0000 )
(feed rate xy = F508   )
(feed rate z  = F254   )
(Z Axis Settings)
(  High     Up        Down     Drill)
(12.7000 	2.5400  	-0.0400 	-3.0000 )
(Settings from pcb-defaults.h)
(isolate min = 0.0000)
(isolate max = 0.0300)
(isolate step = 0.0200)
(Generated top outlines, top drill, )
(Unit of measure: mm)
(Metric Mode)
G21
(Absolute Coordinates)
G90
S18000
G00 Z12.7000 
G00 X0.0000  Y0.0000  
M03
G04 P3.000000
G00 Z2.5400  
G00 X1.1811  Y3.2471  
G01 Z-0.0400 F254   
G01 X1.1811  Y4.3729  F508   
G01 X1.9771  Y5.1689  
G01 X3.1029  Y5.1689  
G01 X3.8649  Y4.4069  
G01 X6.2951  Y4.4069  
G01 X7.0571  Y5.1689  
G01 X8.1829  Y5.1689  
G01 X8.9449  Y4.4069  
G01 X11.3751 Y4.4069  
G01 X12.1371 Y5.1689  
G01 X13.2629 Y5.1689  
G01 X14.0249 Y4.4069  
G01 X16.4551 Y4.4069  
G01 X17.2171 Y5.1689  
G01 X18.3429 Y5.1689  
G01 X19.1389 Y4.3729  
G01 X19.1389 Y3.2952  
G01 X19.2972 Y3.1369  
G01 X33.4207 Y3.1369  
G01 X33.4860 Y3.2267  
G01 X33.6033 Y3.3440  
G01 X33.7375 Y3.4415  
G01 X33.8854 Y3.5169  
G01 X34.0432 Y3.5681  
G01 X34.2070 Y3.5941  
G01 X34.3730 Y3.5941  
G01 X34.5368 Y3.5681  
G01 X34.6946 Y3.5169  
G01 X34.8425 Y3.4415  
G01 X34.9767 Y3.3440  
G01 X35.0940 Y3.2267  
G01 X35.1915 Y3.0925  
G01 X35.2669 Y2.9446  
G01 X35.3181 Y2.7868  
G01 X35.3441 Y2.6230  
G01 X35.3441 Y2.4570  
G01 X35.3181 Y2.2932  
G01 X35.2669 Y2.1354  
G01 X35.1915 Y1.9875  
G01 X35.0940 Y1.8533  
G01 X34.9767 Y1.7360  
G01 X34.8425 Y1.6385  
G01 X34.6946 Y1.5631  
G01 X34.5368 Y1.5119  
G01 X34.3730 Y1.4859  
G01 X34.2070 Y1.4859  
G01 X34.0432 Y1.5119  
G01 X33.8854 Y1.5631  
G01 X33.7375 Y1.6385  
G01 X33.6033 Y1.7360  
G01 X33.4860 Y1.8533  
G01 X33.4207 Y1.9431  
G01 X18.9912 Y1.9431  
G01 X18.8759 Y1.9660  
G01 X18.7673 Y2.0110  
G01 X18.6695 Y2.0764  
G01 X18.2948 Y2.4511  
G01 X17.2171 Y2.4511  
G01 X16.4551 Y3.2131  
G01 X14.0249 Y3.2131  
G01 X13.2629 Y2.4511  
G01 X12.1371 Y2.4511  
G01 X11.3751 Y3.2131  
G01 X8.9449  Y3.2131  
G01 X8.1829  Y2.4511  
G01 X7.0571  Y2.4511  
G01 X6.2951  Y3.2131  
G01 X3.8649  Y3.2131  
G01 X3.1029  Y2.4511  
G01 X1.9771  Y2.4511  
G01 X1.1811  Y3.2471  
G00 Z2.5400  
G00 X1.1811  Y7.0571  
G01 Z-0.0400 F254   
G01 X1.1811  Y8.1829  F508   
G01 X1.9771  Y8.9789  
G01 X3.1029  Y8.9789  
G01 X3.8649  Y8.2169  
G01 X6.2951  Y8.2169  
G01 X7.0571  Y8.9789  
G01 X8.1829  Y8.9789  
G01 X8.9449  Y8.2169  
G01 X11.3751 Y8.2169  
G01 X12.1371 Y8.9789  
G01 X13.2629 Y8.9789  
G01 X14.0249 Y8.2169  
G01 X16.4551 Y8.2169  
G01 X17.2171 Y8.9789  
G01 X18.3429 Y8.9789  
G01 X19.1389 Y8.1829  
G01 X19.1389 Y7.1052  
G01 X20.5672 Y5.6769  
G01 X33.4207 Y5.6769  
G01 X33.4860 Y5.7667  
G01 X33.6033 Y5.8840  
G01 X33.7375 Y5.9815  
G01 X33.8854 Y6.0569  
G01 X34.0432 Y6.1081  
G01 X34.2070 Y6.1341  
G01 X34.3730 Y6.1341  
G01 X34.5368 Y6.1081  
G01 X34.6946 Y6.0569  
G01 X34.8425 Y5.9815  
G01 X34.9767 Y5.8840  
G01 X35.0940 Y5.7667  
G01 X35.1915 Y5.6325  
G01 X35.2669 Y5.4846  
G01 X35.3181 Y5.3268  
G01 X35.3441 Y5.1630  
G01 X35.3441 Y4.9970  
G01 X35.3181 Y4.8332  
G01 X35.2669 Y4.6754  
G01 X35.1915 Y4.5275  
G01 X35.0940 Y4.3933  
G01 X34.9767 Y4.2760  
G01 X34.8425 Y4.1785  
G01 X34.6946 Y4.1031  
G01 X34.5368 Y4.0519  
G01 X34.3730 Y4.0259  
G01 X34.2070 Y4.0259  
G01 X34.0432 Y4.0519  
G01 X33.8854 Y4.1031  
G01 X33.7375 Y4.1785  
G01 X33.6033 Y4.2760  
G01 X33.4860 Y4.3933  
G01 X33.4207 Y4.4831  
G01 X20.2612 Y4.4831  
G01 X20.1459 Y4.5060  
G01 X20.0373 Y4.5510  
G01 X19.9395 Y4.6164  
G01 X18.2948 Y6.2611  
G01 X17.2171 Y6.2611  
G01 X16.4551 Y7.0231  
G01 X14.0249 Y7.0231  
G01 X13.2629 Y6.2611  
G01 X12.1371 Y6.2611  
G01 X11.3751 Y7.0231  
G01 X8.9449  Y7.0231  
G01 X8.1829  Y6.2611  
G01 X7.0571  Y6.2611  
G01 X6.2951  Y7.0231  
G01 X3.8649  Y7.0231  
G01 X3.1029  Y6.2611  
G01 X1.9771  Y6.2611  
G01 X1.1811  Y7.0571  
G00 Z2.5400  
G00 X1.1811  Y10.8671 
G01 Z-0.0400 F254   
G01 X1.1811  Y11.9929 F508   
G01 X1.9771  Y12.7889 
G01 X3.1029  Y12.7889 
G01 X3.8649  Y12.0269 
G01 X6.2951  Y12.0269 
G01 X7.0571  Y12.7889 
G01 X8.1829  Y12.7889 
G01 X8.9449  Y12.0269 
G01 X11.3751 Y12.0269 
G01 X12.1371 Y12.7889 
G01 X13.2629 Y12.7889 
G01 X14.0249 Y12.0269 
G01 X16.4551 Y12.0269 
G01 X17.2171 Y12.7889 
G01 X18.3429 Y12.7889 
G01 X19.1389 Y11.9929 
G01 X19.1389 Y10.9152 
G01 X21.8372 Y8.2169  
G01 X33.4207 Y8.2169  
G01 X33.4860 Y8.3067  
G01 X33.6033 Y8.4240  
G01 X33.7375 Y8.5215  
G01 X33.8854 Y8.5969  
G01 X34.0432 Y8.6481  
G01 X34.2070 Y8.6741  
G01 X34.3730 Y8.6741  
G01 X34.5368 Y8.6481  
G01 X34.6946 Y8.5969  
G01 X34.8425 Y8.5215  
G01 X34.9767 Y8.4240  
G01 X35.0940 Y8.3067  
G01 X35.1915 Y8.1725  
G01 X35.2669 Y8.0246  
G01 X35.3181 Y7.8668  
G01 X35.3441 Y7.7030  
G01 X35.3441 Y7.5370  
G01 X35.3181 Y7.3732  
G01 X35.2669 Y7.2154  
G01 X35.1915 Y7.0675  
G01 X35.0940 Y6.9333  
G01 X34.9767 Y6.8160  
G01 X34.8425 Y6.7185  
G01 X34.6946 Y6.6431  
G01 X34.5368 Y6.5919  
G01 X34.3730 Y6.5659  
G01 X34.2070 Y6.5659  
G01 X34.0432 Y6.5919  
G01 X33.8854 Y6.6431  
G01 X33.7375 Y6.7185  
G01 X33.6033 Y6.8160  
G01 X33.4860 Y6.9333  
G01 X33.4207 Y7.0231  
G01 X21.5312 Y7.0231  
G01 X21.4159 Y7.0460  
G01 X21.3073 Y7.0910  
G01 X21.2095 Y7.1564  
G01 X18.2948 Y10.0711 
G01 X17.2171 Y10.0711 
G01 X16.4551 Y10.8331 
G01 X14.0249 Y10.8331 
G01 X13.2629 Y10.0711 
G01 X12.1371 Y10.0711 
G01 X11.3751 Y10.8331 
G01 X8.9449  Y10.8331 
G01 X8.1829  Y10.0711 
G01 X7.0571  Y10.0711 
G01 X6.2951  Y10.8331 
G01 X3.8649  Y10.8331 
G01 X3.1029  Y10.0711 
G01 X1.9771  Y10.0711 
G01 X1.1811  Y10.8671 
G00 Z2.5400  
G00 X1.1811  Y14.6771 
G01 Z-0.0400 F254   
G01 X1.1811  Y15.8029 F508   
G01 X1.9771  Y16.5989 
G01 X3.1029  Y16.5989 
G01 X3.8649  Y15.8369 
G01 X6.2951  Y15.8369 
G01 X7.0571  Y16.5989 
G01 X8.1829  Y16.5989 
G01 X8.9449  Y15.8369 
G01 X11.3751 Y15.8369 
G01 X12.1371 Y16.5989 
G01 X13.2629 Y16.5989 
G01 X14.0249 Y15.8369 
G01 X16.4551 Y15.8369 
G01 X17.2171 Y16.5989 
G01 X18.3429 Y16.5989 
G01 X19.1389 Y15.8029 
G01 X19.1389 Y14.7252 
G01 X23.1072 Y10.7569 
G01 X33.4207 Y10.7569 
G01 X33.4860 Y10.8467 
G01 X33.6033 Y10.9640 
G01 X33.7375 Y11.0615 
G01 X33.8854 Y11.1369 
G01 X34.0432 Y11.1881 
G01 X34.2070 Y11.2141 
G01 X34.3730 Y11.2141 
G01 X34.5368 Y11.1881 
G01 X34.6946 Y11.1369 
G01 X34.8425 Y11.0615 
G01 X34.9767 Y10.9640 
G01 X35.0940 Y10.8467 
G01 X35.1915 Y10.7125 
G01 X35.2669 Y10.5646 
G01 X35.3181 Y10.4068 
G01 X35.3441 Y10.2430 
G01 X35.3441 Y10.0770 
G01 X35.3181 Y9.9132  
G01 X35.2669 Y9.7554  
G01 X35.1915 Y9.6075  
G01 X35.0940 Y9.4733  
G01 X34.9767 Y9.3560  
G01 X34.8425 Y9.2585  
G01 X34.6946 Y9.1831  
G01 X34.5368 Y9.1319  
G01 X34.3730 Y9.1059  
G01 X34.2070 Y9.1059  
G01 X34.0432 Y9.1319  
G01 X33.8854 Y9.1831  
G01 X33.7375 Y9.2585  
G01 X33.6033 Y9.3560  
G01 X33.4860 Y9.4733  
G01 X33.4207 Y9.5631  
G01 X22.8012 Y9.5631  
G01 X22.6859 Y9.5860  
G01 X22.5773 Y9.6310  
G01 X22.4795 Y9.6964  
G01 X18.2948 Y13.8811 
G01 X17.2171 Y13.8811 
G01 X16.4551 Y14.6431 
G01 X14.0249 Y14.6431 
G01 X13.2629 Y13.8811 
G01 X12.1371 Y13.8811 
G01 X11.3751 Y14.6431 
G01 X8.9449  Y14.6431 
G01 X8.1829  Y13.8811 
G01 X7.0571  Y13.8811 
G01 X6.2951  Y14.6431 
G01 X3.8649  Y14.6431 
G01 X3.1029  Y13.8811 
G01 X1.9771  Y13.8811 
G01 X1.1811  Y14.6771 
G00 Z2.5400  
G00 X1.1811  Y18.4871 
G01 Z-0.0400 F254   
G01 X1.1811  Y19.6129 F508   
G01 X1.9771  Y20.4089 
G01 X3.1029  Y20.4089 
G01 X3.8649  Y19.6469 
G01 X6.2951  Y19.6469 
G01 X7.0571  Y20.4089 
G01 X8.1829  Y20.4089 
G01 X8.9449  Y19.6469 
G01 X11.3751 Y19.6469 
G01 X12.1371 Y20.4089 
G01 X13.2629 Y20.4089 
G01 X14.0249 Y19.6469 
G01 X16.4551 Y19.6469 
G01 X17.2171 Y20.4089 
G01 X18.3429 Y20.4089 
G01 X19.1389 Y19.6129 
G01 X19.1389 Y18.5352 
G01 X24.3772 Y13.2969 
G01 X33.4207 Y13.2969 
G01 X33.4860 Y13.3867 
G01 X33.6033 Y13.5040 
G01 X33.7375 Y13.6015 
G01 X33.8854 Y13.6769 
G01 X34.0432 Y13.7281 
G01 X34.2070 Y13.7541 
G01 X34.3730 Y13.7541 
G01 X34.5368 Y13.7281 
G01 X34.6946 Y13.6769 
G01 X34.8425 Y13.6015 
G01 X34.9767 Y13.5040 
G01 X35.0940 Y13.3867 
G01 X35.1915 Y13.2525 
G01 X35.2669 Y13.1046 
G01 X35.3181 Y12.9468 
G01 X35.3441 Y12.7830 
G01 X35.3441 Y12.6170 
G01 X35.3181 Y12.4532 
G01 X35.2669 Y12.2954 
G01 X35.1915 Y12.1475 
G01 X35.0940 Y12.0133 
G01 X34.9767 Y11.8960 
G01 X34.8425 Y11.7985 
G01 X34.6946 Y11.7231 
G01 X34.5368 Y11.6719 
G01 X34.3730 Y11.6459 
G01 X34.2070 Y11.6459 
G01 X34.0432 Y11.6719 
G01 X33.8854 Y11.7231 
G01 X33.7375 Y11.7985 
G01 X33.6033 Y11.8960 
G01 X33.4860 Y12.0133 
G01 X33.4207 Y12.1031 
G01 X24.0712 Y12.1031 
G01 X23.9559 Y12.1260 
G01 X23.8473 Y12.1710 
G01 X23.7495 Y12.2364 
G01 X18.2948 Y17.6911 
G01 X17.2171 Y17.6911 
G01 X16.4551 Y18.4531 
G01 X14.0249 Y18.4531 
G01 X13.2629 Y17.6911 
G01 X12.1371 Y17.6911 
G01 X11.3751 Y18.4531 
G01 X8.9449  Y18.4531 
G01 X8.1829  Y17.6911 
G01 X7.0571  Y17.6911 
G01 X6.2951  Y18.4531 
G01 X3.8649  Y18.4531 
G01 X3.1029  Y17.6911 
G01 X1.9771  Y17.6911 
G01 X1.1811  Y18.4871 
G00 Z2.5400  
G00 X1.1811  Y22.2971 
G01 Z-0.0400 F254   
G01 X1.1811  Y23.4229 F508   
G01 X1.9771  Y24.2189 
G01 X3.1029  Y24.2189 
G01 X3.8649  Y23.4569 
G01 X6.2951  Y23.4569 
G01 X7.0571  Y24.2189 
G01 X8.1829  Y24.2189 
G01 X8.9449  Y23.4569 
G01 X11.3751 Y23.4569 
G01 X12.1371 Y24.2189 
G01 X13.2629 Y24.2189 
G01 X14.0249 Y23.4569 
G01 X16.4551 Y23.4569 
G01 X17.2171 Y24.2189 
G01 X18.3429 Y24.2189 
G01 X19.1389 Y23.4229 
G01 X19.1389 Y22.3452 
G01 X25.6472 Y15.8369 
G01 X33.4207 Y15.8369 
G01 X33.4860 Y15.9267 
G01 X33.6033 Y16.0440 
G01 X33.7375 Y16.1415 
G01 X33.8854 Y16.2169 
G01 X34.0432 Y16.2681 
G01 X34.2070 Y16.2941 
G01 X34.3730 Y16.2941 
G01 X34.5368 Y16.2681 
G01 X34.6946 Y16.2169 
G01 X34.8425 Y16.1415 
G01 X34.9767 Y16.0440 
G01 X35.0940 Y15.9267 
G01 X35.1915 Y15.7925 
G01 X35.2669 Y15.6446 
G01 X35.3181 Y15.4868 
G01 X35.3441 Y15.3230 
G01 X35.3441 Y15.1570 
G01 X35.3181 Y14.9932 
G01 X35.2669 Y14.8354 
G01 X35.1915 Y14.6875 
G01 X35.0940 Y14.5533 
G01 X34.9767 Y14.4360 
G01 X34.8425 Y14.3385 
G01 X34.6946 Y14.2631 
G01 X34.5368 Y14.2119 
G01 X34.3730 Y14.1859 
G01 X34.2070 Y14.1859 
G01 X34.0432 Y14.2119 
G01 X33.8854 Y14.2631 
G01 X33.7375 Y14.3385 
G01 X33.6033 Y14.4360 
G01 X33.4860 Y14.5533 
G01 X33.4207 Y14.6431 
G01 X25.3412 Y14.6431 
G01 X25.2259 Y14.6660 
G01 X25.1173 Y14.7110 
G01 X25.0195 Y14.7764 
G01 X18.2948 Y21.5011 
G01 X17.2171 Y21.5011 
G01 X16.4551 Y22.2631 
G01 X14.0249 Y22.2631 
G01 X13.2629 Y21.5011 
G01 X12.1371 Y21.5011 
G01 X11.3751 Y22.2631 
G01 X8.9449  Y22.2631 
G01 X8.1829  Y21.5011 
G01 X7.0571  Y21.5011 
G01 X6.2951  Y22.2631 
G01 X3.8649  Y22.2631 
G01 X3.1029  Y21.5011 
G01 X1.9771  Y21.5011 
G01 X1.1811  Y22.2971 
G00 Z2.5400  
G00 X1.1811  Y26.1071 
G01 Z-0.0400 F254   
G01 X1.1811  Y27.2329 F508   
G01 X1.9771  Y28.0289 
G01 X3.1029  Y28.0289 
G01 X3.8649  Y27.2669 
G01 X6.2951  Y27.2669 
G01 X7.0571  Y28.0289 
G01 X8.1829  Y28.0289 
G01 X8.9449  Y27.2669 
G01 X11.3751 Y27.2669 
G01 X12.1371 Y28.0289 
G01 X13.2629 Y28.0289 
G01 X14.0249 Y27.2669 
G01 X16.4551 Y27.2669 
G01 X17.2171 Y28.0289 
G01 X18.3429 Y28.0289 
G01 X19.1389 Y27.2329 
G01 X19.1389 Y26.1552 
G01 X26.9172 Y18.3769 
G01 X33.4207 Y18.3769 
G01 X33.4860 Y18.4667 
G01 X33.6033 Y18.5840 
G01 X33.7375 Y18.6815 
G01 X33.8854 Y18.7569 
G01 X34.0432 Y18.8081 
G01 X34.2070 Y18.8341 
G01 X34.3730 Y18.8341 
G01 X34.5368 Y18.8081 
G01 X34.6946 Y18.7569 
G01 X34.8425 Y18.6815 
G01 X34.9767 Y18.5840 
G01 X35.0940 Y18.4667 
G01 X35.1915 Y18.3325 
G01 X35.2669 Y18.1846 
G01 X35.3181 Y18.0268 
G01 X35.3441 Y17.8630 
G01 X35.3441 Y17.6970 
G01 X35.3181 Y17.5332 
G01 X35.2669 Y17.3754 
G01 X35.1915 Y17.2275 
G01 X35.0940 Y17.0933 
G01 X34.9767 Y16.9760 
G01 X34.8425 Y16.8785 
G01 X34.6946 Y16.8031 
G01 X34.5368 Y16.7519 
G01 X34.3730 Y16.7259 
G01 X34.2070 Y16.7259 
G01 X34.0432 Y16.7519 
G01 X33.8854 Y16.8031 
G01 X33.7375 Y16.8785 
G01 X33.6033 Y16.9760 
G01 X33.4860 Y17.0933 
G01 X33.4207 Y17.1831 
G01 X26.6112 Y17.1831 
G01 X26.4959 Y17.2060 
G01 X26.3873 Y17.2510 
G01 X26.2895 Y17.3164 
G01 X18.2948 Y25.3111 
G01 X17.2171 Y25.3111 
G01 X16.4551 Y26.0731 
G01 X14.0249 Y26.0731 
G01 X13.2629 Y25.3111 
G01 X12.1371 Y25.3111 
G01 X11.3751 Y26.0731 
G01 X8.9449  Y26.0731 
G01 X8.1829  Y25.3111 
G01 X7.0571  Y25.3111 
G01 X6.2951  Y26.0731 
G01 X3.8649  Y26.0731 
G01 X3.1029  Y25.3111 
G01 X1.9771  Y25.3111 
G01 X1.1811  Y26.1071 
G00 Z2.5400  
G00 X1.1811  Y29.9171 
G01 Z-0.0400 F254   
G01 X1.1811  Y31.0429 F508   
G01 X1.9771  Y31.8389 
G01 X3.1029  Y31.8389 
G01 X3.8649  Y31.0769 
G01 X6.2951  Y31.0769 
G01 X7.0571  Y31.8389 
G01 X8.1829  Y31.8389 
G01 X8.9449  Y31.0769 
G01 X11.3751 Y31.0769 
G01 X12.1371 Y31.8389 
G01 X13.2629 Y31.8389 
G01 X14.0249 Y31.0769 
G01 X16.4551 Y31.0769 
G01 X17.2171 Y31.8389 
G01 X18.3429 Y31.8389 
G01 X19.1389 Y31.0429 
G01 X19.1389 Y29.9652 
G01 X28.1872 Y20.9169 
G01 X33.4207 Y20.9169 
G01 X33.4860 Y21.0067 
G01 X33.6033 Y21.1240 
G01 X33.7375 Y21.2215 
G01 X33.8854 Y21.2969 
G01 X34.0432 Y21.3481 
G01 X34.2070 Y21.3741 
G01 X34.3730 Y21.3741 
G01 X34.5368 Y21.3481 
G01 X34.6946 Y21.2969 
G01 X34.8425 Y21.2215 
G01 X34.9767 Y21.1240 
G01 X35.0940 Y21.0067 
G01 X35.1915 Y20.8725 
G01 X35.2669 Y20.7246 
G01 X35.3181 Y20.5668 
G01 X35.3441 Y20.4030 
G01 X35.3441 Y20.2370 
G01 X35.3181 Y20.0732 
G01 X35.2669 Y19.9154 
G01 X35.1915 Y19.7675 
G01 X35.0940 Y19.6333 
G01 X34.9767 Y19.5160 
G01 X34.8425 Y19.4185 
G01 X34.6946 Y19.3431 
G01 X34.5368 Y19.2919 
G01 X34.3730 Y19.2659 
G01 X34.2070 Y19.2659 
G01 X34.0432 Y19.2919 
G01 X33.8854 Y19.3431 
G01 X33.7375 Y19.4185 
G01 X33.6033 Y19.5160 
G01 X33.4860 Y19.6333 
G01 X33.4207 Y19.7231 
G01 X27.8812 Y19.7231 
G01 X27.7659 Y19.7460 
G01 X27.6573 Y19.7910 
G01 X27.5595 Y19.8564 
G01 X18.2948 Y29.1211 
G01 X17.2171 Y29.1211 
G01 X16.4551 Y29.8831 
G01 X14.0249 Y29.8831 
G01 X13.2629 Y29.1211 
G01 X12.1371 Y29.1211 
G01 X11.3751 Y29.8831 
G01 X8.9449  Y29.8831 
G01 X8.1829  Y29.1211 
G01 X7.0571  Y29.1211 
G01 X6.2951  Y29.8831 
G01 X3.8649  Y29.8831 
G01 X3.1029  Y29.1211 
G01 X1.9771  Y29.1211 
G01 X1.1811  Y29.9171 
G00 Z2.5400  
G00 X1.1811  Y33.7271 
G01 Z-0.0400 F254   
G01 X1.1811  Y34.8529 F508   
G01 X1.9771  Y35.6489 
G01 X3.1029  Y35.6489 
G01 X3.8649  Y34.8869 
G01 X6.2951  Y34.8869 
G01 X7.0571  Y35.6489 
G01 X8.1829  Y35.6489 
G01 X8.9449  Y34.8869 
G01 X11.3751 Y34.8869 
G01 X12.1371 Y35.6489 
G01 X13.2629 Y35.6489 
G01 X14.0249 Y34.8869 
G01 X16.4551 Y34.8869 
G01 X17.2171 Y35.6489 
G01 X18.3429 Y35.6489 
G01 X19.1389 Y34.8529 
G01 X19.1389 Y33.7752 
G01 X29.4572 Y23.4569 
G01 X33.4207 Y23.4569 
G01 X33.4860 Y23.5467 
G01 X33.6033 Y23.6640 
G01 X33.7375 Y23.7615 
G01 X33.8854 Y23.8369 
G01 X34.0432 Y23.8881 
G01 X34.2070 Y23.9141 
G01 X34.3730 Y23.9141 
G01 X34.5368 Y23.8881 
G01 X34.6946 Y23.8369 
G01 X34.8425 Y23.7615 
G01 X34.9767 Y23.6640 
G01 X35.0940 Y23.5467 
G01 X35.1915 Y23.4125 
G01 X35.2669 Y23.2646 
G01 X35.3181 Y23.1068 
G01 X35.3441 Y22.9430 
G01 X35.3441 Y22.7770 
G01 X35.3181 Y22.6132 
G01 X35.2669 Y22.4554 
G01 X35.1915 Y22.3075 
G01 X35.0940 Y22.1733 
G01 X34.9767 Y22.0560 
G01 X34.8425 Y21.9585 
G01 X34.6946 Y21.8831 
G01 X34.5368 Y21.8319 
G01 X34.3730 Y21.8059 
G01 X34.2070 Y21.8059 
G01 X34.0432 Y21.8319 
G01 X33.8854 Y21.8831 
G01 X33.7375 Y21.9585 
G01 X33.6033 Y22.0560 
G01 X33.4860 Y22.1733 
G01 X33.4207 Y22.2631 
G01 X29.1512 Y22.2631 
G01 X29.0359 Y22.2860 
G01 X28.9273 Y22.3310 
G01 X28.8295 Y22.3964 
G01 X18.2948 Y32.9311 
G01 X17.2171 Y32.9311 
G01 X16.4551 Y33.6931 
G01 X14.0249 Y33.6931 
G01 X13.2629 Y32.9311 
G01 X12.1371 Y32.9311 
G01 X11.3751 Y33.6931 
G01 X8.9449  Y33.6931 
G01 X8.1829  Y32.9311 
G01 X7.0571  Y32.9311 
G01 X6.2951  Y33.6931 
G01 X3.8649  Y33.6931 
G01 X3.1029  Y32.9311 
G01 X1.9771  Y32.9311 
G01 X1.1811  Y33.7271 
G00 Z2.5400  
G00 X1.1811  Y37.5371 
G01 Z-0.0400 F254   
G01 X1.1811  Y38.6629 F508   
G01 X1.9771  Y39.4589 
G01 X3.1029  Y39.4589 
G01 X3.8649  Y38.6969 
G01 X6.2951  Y38.6969 
G01 X7.0571  Y39.4589 
G01 X8.1829  Y39.4589 
G01 X8.9449  Y38.6969 
G01 X11.3751 Y38.6969 
G01 X12.1371 Y39.4589 
G01 X13.2629 Y39.4589 
G01 X14.0249 Y38.6969 
G01 X16.4551 Y38.6969 
G01 X17.2171 Y39.4589 
G01 X18.3429 Y39.4589 
G01 X19.1389 Y38.6629 
G01 X19.1389 Y37.5852 
G01 X30.7272 Y25.9969 
G01 X33.4207 Y25.9969 
G01 X33.4860 Y26.0867 
G01 X33.6033 Y26.2040 
G01 X33.7375 Y26.3015 
G01 X33.8854 Y26.3769 
G01 X34.0432 Y26.4281 
G01 X34.2070 Y26.4541 
G01 X34.3730 Y26.4541 
G01 X34.5368 Y26.4281 
G01 X34.6946 Y26.3769 
G01 X34.8425 Y26.3015 
G01 X34.9767 Y26.2040 
G01 X35.0940 Y26.0867 
G01 X35.1915 Y25.9525 
G01 X35.2669 Y25.8046 
G01 X35.3181 Y25.6468 
G01 X35.3441 Y25.4830 
G01 X35.3441 Y25.3170 
G01 X35.3181 Y25.1532 
G01 X35.2669 Y24.9954 
G01 X35.1915 Y24.8475 
G01 X35.0940 Y24.7133 
G01 X34.9767 Y24.5960 
G01 X34.8425 Y24.4985 
G01 X34.6946 Y24.4231 
G01 X34.5368 Y24.3719 
G01 X34.3730 Y24.3459 
G01 X34.2070 Y24.3459 
G01 X34.0432 Y24.3719 
G01 X33.8854 Y24.4231 
G01 X33.7375 Y24.4985 
G01 X33.6033 Y24.5960 
G01 X33.4860 Y24.7133 
G01 X33.4207 Y24.8031 
G01 X30.4212 Y24.8031 
G01 X30.3059 Y24.8260 
G01 X30.1973 Y24.8710 
G01 X30.0995 Y24.9364 
G01 X18.2948 Y36.7411 
G01 X17.2171 Y36.7411 
G01 X16.4551 Y37.5031 
G01 X14.0249 Y37.5031 
G01 X13.2629 Y36.7411 
G01 X12.1371 Y36.7411 
G01 X11.3751 Y37.5031 
G01 X8.9449  Y37.5031 
G01 X8.1829  Y36.7411 
G01 X7.0571  Y36.7411 
G01 X6.2951  Y37.5031 
G01 X3.8649  Y37.5031 
G01 X3.1029  Y36.7411 
G01 X1.9771  Y36.7411 
G01 X1.1811  Y37.5371 
G00 Z2.5400  
G00 X1.1811  Y41.3471 
G01 Z-0.0400 F254   
G01 X1.1811  Y42.4729 F508   
G01 X1.9771  Y43.2689 
G01 X3.1029  Y43.2689 
G01 X3.8649  Y42.5069 
G01 X6.2951  Y42.5069 
G01 X7.0571  Y43.2689 
G01 X8.1829  Y43.2689 
G01 X8.9449  Y42.5069 
G01 X11.3751 Y42.5069 
G01 X12.1371 Y43.2689 
G01 X13.2629 Y43.2689 
G01 X14.0249 Y42.5069 
G01 X16.4551 Y42.5069 
G01 X17.2171 Y43.2689 
G01 X18.3429 Y43.2689 
G01 X19.1389 Y42.4729 
G01 X19.1389 Y41.3952 
G01 X31.9972 Y28.5369 
G01 X33.4207 Y28.5369 
G01 X33.4860 Y28.6267 
G01 X33.6033 Y28.7440 
G01 X33.7375 Y28.8415 
G01 X33.8854 Y28.9169 
G01 X34.0432 Y28.9681 
G01 X34.2070 Y28.9941 
G01 X34.3730 Y28.9941 
G01 X34.5368 Y28.9681 
G01 X34.6946 Y28.9169 
G01 X34.8425 Y28.8415 
G01 X34.9767 Y28.7440 
G01 X35.0940 Y28.6267 
G01 X35.1915 Y28.4925 
G01 X35.2669 Y28.3446 
G01 X35.3181 Y28.1868 
G01 X35.3441 Y28.0230 
G01 X35.3441 Y27.8570 
G01 X35.3181 Y27.6932 
G01 X35.2669 Y27.5354 
G01 X35.1915 Y27.3875 
G01 X35.0940 Y27.2533 
G01 X34.9767 Y27.1360 
G01 X34.8425 Y27.0385 
G01 X34.6946 Y26.9631 
G01 X34.5368 Y26.9119 
G01 X34.3730 Y26.8859 
G01 X34.2070 Y26.8859 
G01 X34.0432 Y26.9119 
G01 X33.8854 Y26.9631 
G01 X33.7375 Y27.0385 
G01 X33.6033 Y27.1360 
G01 X33.4860 Y27.2533 
G01 X33.4207 Y27.3431 
G01 X31.6912 Y27.3431 
G01 X31.5759 Y27.3660 
G01 X31.4673 Y27.4110 
G01 X31.3695 Y27.4764 
G01 X31.2864 Y27.5595 
G01 X18.2948 Y40.5511 
G01 X17.2171 Y40.5511 
G01 X16.4551 Y41.3131 
G01 X14.0249 Y41.3131 
G01 X13.2629 Y40.5511 
G01 X12.1371 Y40.5511 
G01 X11.3751 Y41.3131 
G01 X8.9449  Y41.3131 
G01 X8.1829  Y40.5511 
G01 X7.0571  Y40.5511 
G01 X6.2951  Y41.3131 
G01 X3.8649  Y41.3131 
G01 X3.1029  Y40.5511 
G01 X1.9771  Y40.5511 
G01 X1.1811  Y41.3471 
G00 Z2.5400  
G00 X1.1811  Y45.1571 
G01 Z-0.0400 F254   
G01 X1.1811  Y46.2829 F508   
G01 X1.9771  Y47.0789 
G01 X3.1029  Y47.0789 
G01 X3.8649  Y46.3169 
G01 X6.2951  Y46.3169 
G01 X7.0571  Y47.0789 
G01 X8.1829  Y47.0789 
G01 X8.9449  Y46.3169 
G01 X11.3751 Y46.3169 
G01 X12.1371 Y47.0789 
G01 X13.2629 Y47.0789 
G01 X14.0249 Y46.3169 
G01 X16.4551 Y46.3169 
G01 X17.2171 Y47.0789 
G01 X18.3429 Y47.0789 
G01 X19.1389 Y46.2829 
G01 X19.1389 Y45.2052 
G01 X33.2672 Y31.0769 
G01 X33.4207 Y31.0769 
G01 X33.4860 Y31.1667 
G01 X33.6033 Y31.2840 
G01 X33.7375 Y31.3815 
G01 X33.8854 Y31.4569 
G01 X34.0432 Y31.5081 
G01 X34.2070 Y31.5341 
G01 X34.3730 Y31.5341 
G01 X34.5368 Y31.5081 
G01 X34.6946 Y31.4569 
G01 X34.8425 Y31.3815 
G01 X34.9767 Y31.2840 
G01 X35.0940 Y31.1667 
G01 X35.1915 Y31.0325 
G01 X35.2669 Y30.8846 
G01 X35.3181 Y30.7268 
G01 X35.3441 Y30.5630 
G01 X35.3441 Y30.3970 
G01 X35.3181 Y30.2332 
G01 X35.2669 Y30.0754 
G01 X35.1915 Y29.9275 
G01 X35.0940 Y29.7933 
G01 X34.9767 Y29.6760 
G01 X34.8425 Y29.5785 
G01 X34.6946 Y29.5031 
G01 X34.5368 Y29.4519 
G01 X34.3730 Y29.4259 
G01 X34.2070 Y29.4259 
G01 X34.0432 Y29.4519 
G01 X33.8854 Y29.5031 
G01 X33.7375 Y29.5785 
G01 X33.6033 Y29.6760 
G01 X33.4860 Y29.7933 
G01 X33.4207 Y29.8831 
G01 X32.9612 Y29.8831 
G01 X32.8459 Y29.9060 
G01 X32.7373 Y29.9510 
G01 X32.6395 Y30.0164 
G01 X32.5564 Y30.0995 
G01 X18.2948 Y44.3611 
G01 X17.2171 Y44.3611 
G01 X16.4551 Y45.1231 
G01 X14.0249 Y45.1231 
G01 X13.2629 Y44.3611 
G01 X12.1371 Y44.3611 
G01 X11.3751 Y45.1231 
G01 X8.9449  Y45.1231 
G01 X8.1829  Y44.3611 
G01 X7.0571  Y44.3611 
G01 X6.2951  Y45.1231 
G01 X3.8649  Y45.1231 
G01 X3.1029  Y44.3611 
G01 X1.9771  Y44.3611 
G01 X1.1811  Y45.1571 
G00 Z2.5400  
G00 X1.1811  Y48.9671 
G01 Z-0.0400 F254   
G01 X1.1811  Y50.0929 F508   
G01 X1.9771  Y50.8889 
G01 X3.1029  Y50.8889 
G01 X3.8649  Y50.1269 
G01 X6.2951  Y50.1269 
G01 X7.0571  Y50.8889 
G01 X8.1829  Y50.8889 
G01 X8.9449  Y50.1269 
G01 X11.3751 Y50.1269 
G01 X12.1371 Y50.8889 
G01 X13.2629 Y50.8889 
G01 X14.0249 Y50.1269 
G01 X16.4551 Y50.1269 
G01 X17.2171 Y50.8889 
G01 X18.3429 Y50.8889 
G01 X19.1389 Y50.0929 
G01 X19.1389 Y49.0152 
G01 X34.0974 Y34.0567 
G01 X34.2070 Y34.0741 
G01 X34.3730 Y34.0741 
G01 X34.5368 Y34.0481 
G01 X34.6946 Y33.9969 
G01 X34.8425 Y33.9215 
G01 X34.9767 Y33.8240 
G01 X35.0940 Y33.7067 
G01 X35.1915 Y33.5725 
G01 X35.2669 Y33.4246 
G01 X35.3181 Y33.2668 
G01 X35.3441 Y33.1030 
G01 X35.3441 Y32.9370 
G01 X35.3181 Y32.7732 
G01 X35.2669 Y32.6154 
G01 X35.1915 Y32.4675 
G01 X35.0940 Y32.3333 
G01 X34.9767 Y32.2160 
G01 X34.8425 Y32.1185 
G01 X34.6946 Y32.0431 
G01 X34.5368 Y31.9919 
G01 X34.3730 Y31.9659 
G01 X34.2070 Y31.9659 
G01 X34.0432 Y31.9919 
G01 X33.8854 Y32.0431 
G01 X33.7375 Y32.1185 
G01 X33.6033 Y32.2160 
G01 X33.4860 Y32.3333 
G01 X33.3885 Y32.4675 
G01 X33.3131 Y32.6154 
G01 X33.2619 Y32.7732 
G01 X33.2359 Y32.9370 
G01 X33.2359 Y33.1030 
G01 X33.2533 Y33.2126 
G01 X18.2948 Y48.1711 
G01 X17.2171 Y48.1711 
G01 X16.4551 Y48.9331 
G01 X14.0249 Y48.9331 
G01 X13.2629 Y48.1711 
G01 X12.1371 Y48.1711 
G01 X11.3751 Y48.9331 
G01 X8.9449  Y48.9331 
G01 X8.1829  Y48.1711 
G01 X7.0571  Y48.1711 
G01 X6.2951  Y48.9331 
G01 X3.8649  Y48.9331 
G01 X3.1029  Y48.1711 
G01 X1.9771  Y48.1711 
G01 X1.1811  Y48.9671 
G00 Z2.5400  
G00 X1.1811  Y52.7771 
G01 Z-0.0400 F254   
G01 X1.1811  Y53.9029 F508   
G01 X1.9771  Y54.6989 
G01 X3.1029  Y54.6989 
G01 X3.8649  Y53.9369 
G01 X6.2951  Y53.9369 
G01 X7.0571  Y54.6989 
G01 X8.1829  Y54.6989 
G01 X8.9449  Y53.9369 
G01 X11.3751 Y53.9369 
G01 X12.1371 Y54.6989 
G01 X13.2629 Y54.6989 
G01 X14.0249 Y53.9369 
G01 X16.4551 Y53.9369 
G01 X17.2171 Y54.6989 
G01 X18.3429 Y54.6989 
G01 X19.1389 Y53.9029 
G01 X19.1389 Y52.8252 
G01 X34.6705 Y37.2936 
G01 X34.7536 Y37.2105 
G01 X34.8190 Y37.1127 
G01 X34.8640 Y37.0041 
G01 X34.8869 Y36.8888 
G01 X34.8869 Y36.4293 
G01 X34.9767 Y36.3640 
G01 X35.0940 Y36.2467 
G01 X35.1915 Y36.1125 
G01 X35.2669 Y35.9646 
G01 X35.3181 Y35.8068 
G01 X35.3441 Y35.6430 
G01 X35.3441 Y35.4770 
G01 X35.3181 Y35.3132 
G01 X35.2669 Y35.1554 
G01 X35.1915 Y35.0075 
G01 X35.0940 Y34.8733 
G01 X34.9767 Y34.7560 
G01 X34.8425 Y34.6585 
G01 X34.6946 Y34.5831 
G01 X34.5368 Y34.5319 
G01 X34.3730 Y34.5059 
G01 X34.2070 Y34.5059 
G01 X34.0432 Y34.5319 
G01 X33.8854 Y34.5831 
G01 X33.7375 Y34.6585 
G01 X33.6033 Y34.7560 
G01 X33.4860 Y34.8733 
G01 X33.3885 Y35.0075 
G01 X33.3131 Y35.1554 
G01 X33.2619 Y35.3132 
G01 X33.2359 Y35.4770 
G01 X33.2359 Y35.6430 
G01 X33.2619 Y35.8068 
G01 X33.3131 Y35.9646 
G01 X33.3885 Y36.1125 
G01 X33.4860 Y36.2467 
G01 X33.6033 Y36.3640 
G01 X33.6931 Y36.4293 
G01 X33.6931 Y36.5828 
G01 X18.2948 Y51.9811 
G01 X17.2171 Y51.9811 
G01 X16.4551 Y52.7431 
G01 X14.0249 Y52.7431 
G01 X13.2629 Y51.9811 
G01 X12.1371 Y51.9811 
G01 X11.3751 Y52.7431 
G01 X8.9449  Y52.7431 
G01 X8.1829  Y51.9811 
G01 X7.0571  Y51.9811 
G01 X6.2951  Y52.7431 
G01 X3.8649  Y52.7431 
G01 X3.1029  Y51.9811 
G01 X1.9771  Y51.9811 
G01 X1.1811  Y52.7771 
G00 Z2.5400  
G00 X33.7271 Y49.6189 
G01 Z-0.0400 F254   
G01 X34.8529 Y49.6189 F508   
G01 X35.6489 Y48.8229 
G01 X35.6489 Y47.6971 
G01 X35.4891 Y47.5374 
G01 X39.8670 Y40.9706 
G01 X39.8990 Y40.9227 
G01 X39.9218 Y40.8676 
G01 X39.9440 Y40.8141 
G01 X39.9556 Y40.7558 
G01 X39.9669 Y40.6988 
G01 X39.9669 Y40.6393 
G01 X39.9669 Y36.4293 
G01 X40.0567 Y36.3640 
G01 X40.1740 Y36.2467 
G01 X40.2715 Y36.1125 
G01 X40.3469 Y35.9646 
G01 X40.3981 Y35.8068 
G01 X40.4241 Y35.6430 
G01 X40.4241 Y35.4770 
G01 X40.3981 Y35.3132 
G01 X40.3469 Y35.1554 
G01 X40.2715 Y35.0075 
G01 X40.1740 Y34.8733 
G01 X40.0567 Y34.7560 
G01 X39.9225 Y34.6585 
G01 X39.7746 Y34.5831 
G01 X39.6168 Y34.5319 
G01 X39.4530 Y34.5059 
G01 X39.2870 Y34.5059 
G01 X39.1232 Y34.5319 
G01 X38.9654 Y34.5831 
G01 X38.8175 Y34.6585 
G01 X38.6833 Y34.7560 
G01 X38.5660 Y34.8733 
G01 X38.4685 Y35.0075 
G01 X38.3931 Y35.1554 
G01 X38.3419 Y35.3132 
G01 X38.3159 Y35.4770 
G01 X38.3159 Y35.6430 
G01 X38.3419 Y35.8068 
G01 X38.3931 Y35.9646 
G01 X38.4685 Y36.1125 
G01 X38.5660 Y36.2467 
G01 X38.6833 Y36.3640 
G01 X38.7731 Y36.4293 
G01 X38.7731 Y40.4593 
G01 X34.4785 Y46.9011 
G01 X33.7271 Y46.9011 
G01 X32.9311 Y47.6971 
G01 X32.9311 Y48.8229 
G01 X33.7271 Y49.6189 
G00 Z2.5400  
G00 X33.7271 Y43.2689 
G01 Z-0.0400 F254   
G01 X34.8529 Y43.2689 F508   
G01 X35.6489 Y42.4729 
G01 X35.6489 Y41.3471 
G01 X35.4891 Y41.1874 
G01 X37.3270 Y38.4306 
G01 X37.3590 Y38.3827 
G01 X37.3818 Y38.3276 
G01 X37.4040 Y38.2741 
G01 X37.4156 Y38.2158 
G01 X37.4269 Y38.1588 
G01 X37.4269 Y38.0993 
G01 X37.4269 Y36.4293 
G01 X37.5167 Y36.3640 
G01 X37.6340 Y36.2467 
G01 X37.7315 Y36.1125 
G01 X37.8069 Y35.9646 
G01 X37.8581 Y35.8068 
G01 X37.8841 Y35.6430 
G01 X37.8841 Y35.4770 
G01 X37.8581 Y35.3132 
G01 X37.8069 Y35.1554 
G01 X37.7315 Y35.0075 
G01 X37.6340 Y34.8733 
G01 X37.5167 Y34.7560 
G01 X37.3825 Y34.6585 
G01 X37.2346 Y34.5831 
G01 X37.0768 Y34.5319 
G01 X36.9130 Y34.5059 
G01 X36.7470 Y34.5059 
G01 X36.5832 Y34.5319 
G01 X36.4254 Y34.5831 
G01 X36.2775 Y34.6585 
G01 X36.1433 Y34.7560 
G01 X36.0260 Y34.8733 
G01 X35.9285 Y35.0075 
G01 X35.8531 Y35.1554 
G01 X35.8019 Y35.3132 
G01 X35.7759 Y35.4770 
G01 X35.7759 Y35.6430 
G01 X35.8019 Y35.8068 
G01 X35.8531 Y35.9646 
G01 X35.9285 Y36.1125 
G01 X36.0260 Y36.2467 
G01 X36.1433 Y36.3640 
G01 X36.2331 Y36.4293 
G01 X36.2331 Y37.9193 
G01 X34.4785 Y40.5511 
G01 X33.7271 Y40.5511 
G01 X32.9311 Y41.3471 
G01 X32.9311 Y42.4729 
G01 X33.7271 Y43.2689 
G00 Z2.5400  
G00 X40.5511 Y47.6971 
G01 Z-0.0400 F254   
G01 X40.5511 Y48.8229 F508   
G01 X41.3471 Y49.6189 
G01 X42.4729 Y49.6189 
G01 X43.2689 Y48.8229 
G01 X43.2689 Y47.6971 
G01 X42.5069 Y46.9351 
G01 X42.5069 Y36.4293 
G01 X42.5967 Y36.3640 
G01 X42.7140 Y36.2467 
G01 X42.8115 Y36.1125 
G01 X42.8869 Y35.9646 
G01 X42.9381 Y35.8068 
G01 X42.9641 Y35.6430 
G01 X42.9641 Y35.4770 
G01 X42.9381 Y35.3132 
G01 X42.8869 Y35.1554 
G01 X42.8115 Y35.0075 
G01 X42.7140 Y34.8733 
G01 X42.5967 Y34.7560 
G01 X42.4625 Y34.6585 
G01 X42.3146 Y34.5831 
G01 X42.1568 Y34.5319 
G01 X41.9930 Y34.5059 
G01 X41.8270 Y34.5059 
G01 X41.6632 Y34.5319 
G01 X41.5054 Y34.5831 
G01 X41.3575 Y34.6585 
G01 X41.2233 Y34.7560 
G01 X41.1060 Y34.8733 
G01 X41.0085 Y35.0075 
G01 X40.9331 Y35.1554 
G01 X40.8819 Y35.3132 
G01 X40.8559 Y35.4770 
G01 X40.8559 Y35.6430 
G01 X40.8819 Y35.8068 
G01 X40.9331 Y35.9646 
G01 X41.0085 Y36.1125 
G01 X41.1060 Y36.2467 
G01 X41.2233 Y36.3640 
G01 X41.3131 Y36.4293 
G01 X41.3131 Y46.9351 
G01 X40.5511 Y47.6971 
G00 Z2.5400  
G00 X48.1711 Y47.6971 
G01 Z-0.0400 F254   
G01 X48.1711 Y48.8229 F508   
G01 X48.9671 Y49.6189 
G01 X50.0929 Y49.6189 
G01 X50.8889 Y48.8229 
G01 X50.8889 Y47.6971 
G01 X50.0929 Y46.9011 
G01 X49.3415 Y46.9011 
G01 X45.0469 Y40.4593 
G01 X45.0469 Y36.4293 
G01 X45.1367 Y36.3640 
G01 X45.2540 Y36.2467 
G01 X45.3515 Y36.1125 
G01 X45.4269 Y35.9646 
G01 X45.4781 Y35.8068 
G01 X45.5041 Y35.6430 
G01 X45.5041 Y35.4770 
G01 X45.4781 Y35.3132 
G01 X45.4269 Y35.1554 
G01 X45.3515 Y35.0075 
G01 X45.2540 Y34.8733 
G01 X45.1367 Y34.7560 
G01 X45.0025 Y34.6585 
G01 X44.8546 Y34.5831 
G01 X44.6968 Y34.5319 
G01 X44.5330 Y34.5059 
G01 X44.3670 Y34.5059 
G01 X44.2032 Y34.5319 
G01 X44.0454 Y34.5831 
G01 X43.8975 Y34.6585 
G01 X43.7633 Y34.7560 
G01 X43.6460 Y34.8733 
G01 X43.5485 Y35.0075 
G01 X43.4731 Y35.1554 
G01 X43.4219 Y35.3132 
G01 X43.3959 Y35.4770 
G01 X43.3959 Y35.6430 
G01 X43.4219 Y35.8068 
G01 X43.4731 Y35.9646 
G01 X43.5485 Y36.1125 
G01 X43.6460 Y36.2467 
G01 X43.7633 Y36.3640 
G01 X43.8531 Y36.4293 
G01 X43.8531 Y40.6393 
G01 X43.8530 Y40.6982 
G01 X43.8644 Y40.7558 
G01 X43.8759 Y40.8135 
G01 X43.8982 Y40.8676 
G01 X43.9207 Y40.9222 
G01 X43.9530 Y40.9706 
G01 X48.3309 Y47.5374 
G01 X48.1711 Y47.6971 
G00 Z2.5400  
G00 X48.9671 Y43.2689 
G01 Z-0.0400 F254   
G01 X50.0929 Y43.2689 F508   
G01 X50.8889 Y42.4729 
G01 X50.8889 Y41.3471 
G01 X50.0929 Y40.5511 
G01 X49.0152 Y40.5511 
G01 X47.5869 Y39.1228 
G01 X47.5869 Y36.4293 
G01 X47.6767 Y36.3640 
G01 X47.7940 Y36.2467 
G01 X47.8915 Y36.1125 
G01 X47.9669 Y35.9646 
G01 X48.0181 Y35.8068 
G01 X48.0441 Y35.6430 
G01 X48.0441 Y35.4770 
G01 X48.0181 Y35.3132 
G01 X47.9669 Y35.1554 
G01 X47.8915 Y35.0075 
G01 X47.7940 Y34.8733 
G01 X47.6767 Y34.7560 
G01 X47.5425 Y34.6585 
G01 X47.3946 Y34.5831 
G01 X47.2368 Y34.5319 
G01 X47.0730 Y34.5059 
G01 X46.9070 Y34.5059 
G01 X46.7432 Y34.5319 
G01 X46.5854 Y34.5831 
G01 X46.4375 Y34.6585 
G01 X46.3033 Y34.7560 
G01 X46.1860 Y34.8733 
G01 X46.0885 Y35.0075 
G01 X46.0131 Y35.1554 
G01 X45.9619 Y35.3132 
G01 X45.9359 Y35.4770 
G01 X45.9359 Y35.6430 
G01 X45.9619 Y35.8068 
G01 X46.0131 Y35.9646 
G01 X46.0885 Y36.1125 
G01 X46.1860 Y36.2467 
G01 X46.3033 Y36.3640 
G01 X46.3931 Y36.4293 
G01 X46.3931 Y39.4288 
G01 X46.4160 Y39.5441 
G01 X46.4610 Y39.6527 
G01 X46.5264 Y39.7505 
G01 X48.1711 Y41.3952 
G01 X48.1711 Y42.4729 
G01 X48.9671 Y43.2689 
G00 Z2.5400  
G00 X49.1495 Y37.2936 
G01 Z-0.0400 F254   
G01 X64.6811 Y52.8252 F508   
G01 X64.6811 Y53.9029 
G01 X65.4771 Y54.6989 
G01 X66.6029 Y54.6989 
G01 X67.3649 Y53.9369 
G01 X69.7951 Y53.9369 
G01 X70.5571 Y54.6989 
G01 X71.6829 Y54.6989 
G01 X72.4449 Y53.9369 
G01 X74.8751 Y53.9369 
G01 X75.6371 Y54.6989 
G01 X76.7629 Y54.6989 
G01 X77.5249 Y53.9369 
G01 X79.9551 Y53.9369 
G01 X80.7171 Y54.6989 
G01 X81.8429 Y54.6989 
G01 X82.6389 Y53.9029 
G01 X82.6389 Y52.7771 
G01 X81.8429 Y51.9811 
G01 X80.7171 Y51.9811 
G01 X79.9551 Y52.7431 
G01 X77.5249 Y52.7431 
G01 X76.7629 Y51.9811 
G01 X75.6371 Y51.9811 
G01 X74.8751 Y52.7431 
G01 X72.4449 Y52.7431 
G01 X71.6829 Y51.9811 
G01 X70.5571 Y51.9811 
G01 X69.7951 Y52.7431 
G01 X67.3649 Y52.7431 
G01 X66.6029 Y51.9811 
G01 X65.5252 Y51.9811 
G01 X50.1269 Y36.5828 
G01 X50.1269 Y36.4293 
G01 X50.2167 Y36.3640 
G01 X50.3340 Y36.2467 
G01 X50.4315 Y36.1125 
G01 X50.5069 Y35.9646 
G01 X50.5581 Y35.8068 
G01 X50.5841 Y35.6430 
G01 X50.5841 Y35.4770 
G01 X50.5581 Y35.3132 
G01 X50.5069 Y35.1554 
G01 X50.4315 Y35.0075 
G01 X50.3340 Y34.8733 
G01 X50.2167 Y34.7560 
G01 X50.0825 Y34.6585 
G01 X49.9346 Y34.5831 
G01 X49.7768 Y34.5319 
G01 X49.6130 Y34.5059 
G01 X49.4470 Y34.5059 
G01 X49.2832 Y34.5319 
G01 X49.1254 Y34.5831 
G01 X48.9775 Y34.6585 
G01 X48.8433 Y34.7560 
G01 X48.7260 Y34.8733 
G01 X48.6285 Y35.0075 
G01 X48.5531 Y35.1554 
G01 X48.5019 Y35.3132 
G01 X48.4759 Y35.4770 
G01 X48.4759 Y35.6430 
G01 X48.5019 Y35.8068 
G01 X48.5531 Y35.9646 
G01 X48.6285 Y36.1125 
G01 X48.7260 Y36.2467 
G01 X48.8433 Y36.3640 
G01 X48.9331 Y36.4293 
G01 X48.9331 Y36.8888 
G01 X48.9560 Y37.0041 
G01 X49.0010 Y37.1127 
G01 X49.0664 Y37.2105 
G01 X49.1495 Y37.2936 
G00 Z2.5400  
G00 X49.1254 Y33.9969 
G01 Z-0.0400 F254   
G01 X49.2832 Y34.0481 F508   
G01 X49.4470 Y34.0741 
G01 X49.6130 Y34.0741 
G01 X49.7226 Y34.0567 
G01 X64.6811 Y49.0152 
G01 X64.6811 Y50.0929 
G01 X65.4771 Y50.8889 
G01 X66.6029 Y50.8889 
G01 X67.3649 Y50.1269 
G01 X69.7951 Y50.1269 
G01 X70.5571 Y50.8889 
G01 X71.6829 Y50.8889 
G01 X72.4449 Y50.1269 
G01 X74.8751 Y50.1269 
G01 X75.6371 Y50.8889 
G01 X76.7629 Y50.8889 
G01 X77.5249 Y50.1269 
G01 X79.9551 Y50.1269 
G01 X80.7171 Y50.8889 
G01 X81.8429 Y50.8889 
G01 X82.6389 Y50.0929 
G01 X82.6389 Y48.9671 
G01 X81.8429 Y48.1711 
G01 X80.7171 Y48.1711 
G01 X79.9551 Y48.9331 
G01 X77.5249 Y48.9331 
G01 X76.7629 Y48.1711 
G01 X75.6371 Y48.1711 
G01 X74.8751 Y48.9331 
G01 X72.4449 Y48.9331 
G01 X71.6829 Y48.1711 
G01 X70.5571 Y48.1711 
G01 X69.7951 Y48.9331 
G01 X67.3649 Y48.9331 
G01 X66.6029 Y48.1711 
G01 X65.5252 Y48.1711 
G01 X50.5667 Y33.2126 
G01 X50.5841 Y33.1030 
G01 X50.5841 Y32.9370 
G01 X50.5581 Y32.7732 
G01 X50.5069 Y32.6154 
G01 X50.4315 Y32.4675 
G01 X50.3340 Y32.3333 
G01 X50.2167 Y32.2160 
G01 X50.0825 Y32.1185 
G01 X49.9346 Y32.0431 
G01 X49.7768 Y31.9919 
G01 X49.6130 Y31.9659 
G01 X49.4470 Y31.9659 
G01 X49.2832 Y31.9919 
G01 X49.1254 Y32.0431 
G01 X48.9775 Y32.1185 
G01 X48.8433 Y32.2160 
G01 X48.7260 Y32.3333 
G01 X48.6285 Y32.4675 
G01 X48.5531 Y32.6154 
G01 X48.5019 Y32.7732 
G01 X48.4759 Y32.9370 
G01 X48.4759 Y33.1030 
G01 X48.5019 Y33.2668 
G01 X48.5531 Y33.4246 
G01 X48.6285 Y33.5725 
G01 X48.7260 Y33.7067 
G01 X48.8433 Y33.8240 
G01 X48.9775 Y33.9215 
G01 X49.1254 Y33.9969 
G00 Z2.5400  
G00 X49.1254 Y31.4569 
G01 Z-0.0400 F254   
G01 X49.2832 Y31.5081 F508   
G01 X49.4470 Y31.5341 
G01 X49.6130 Y31.5341 
G01 X49.7768 Y31.5081 
G01 X49.9346 Y31.4569 
G01 X50.0825 Y31.3815 
G01 X50.2167 Y31.2840 
G01 X50.3340 Y31.1667 
G01 X50.3993 Y31.0769 
G01 X50.5528 Y31.0769 
G01 X64.6811 Y45.2052 
G01 X64.6811 Y46.2829 
G01 X65.4771 Y47.0789 
G01 X66.6029 Y47.0789 
G01 X67.3649 Y46.3169 
G01 X69.7951 Y46.3169 
G01 X70.5571 Y47.0789 
G01 X71.6829 Y47.0789 
G01 X72.4449 Y46.3169 
G01 X74.8751 Y46.3169 
G01 X75.6371 Y47.0789 
G01 X76.7629 Y47.0789 
G01 X77.5249 Y46.3169 
G01 X79.9551 Y46.3169 
G01 X80.7171 Y47.0789 
G01 X81.8429 Y47.0789 
G01 X82.6389 Y46.2829 
G01 X82.6389 Y45.1571 
G01 X81.8429 Y44.3611 
G01 X80.7171 Y44.3611 
G01 X79.9551 Y45.1231 
G01 X77.5249 Y45.1231 
G01 X76.7629 Y44.3611 
G01 X75.6371 Y44.3611 
G01 X74.8751 Y45.1231 
G01 X72.4449 Y45.1231 
G01 X71.6829 Y44.3611 
G01 X70.5571 Y44.3611 
G01 X69.7951 Y45.1231 
G01 X67.3649 Y45.1231 
G01 X66.6029 Y44.3611 
G01 X65.5252 Y44.3611 
G01 X51.2636 Y30.0995 
G01 X51.1805 Y30.0164 
G01 X51.0827 Y29.9510 
G01 X50.9741 Y29.9060 
G01 X50.8588 Y29.8831 
G01 X50.3993 Y29.8831 
G01 X50.3340 Y29.7933 
G01 X50.2167 Y29.6760 
G01 X50.0825 Y29.5785 
G01 X49.9346 Y29.5031 
G01 X49.7768 Y29.4519 
G01 X49.6130 Y29.4259 
G01 X49.4470 Y29.4259 
G01 X49.2832 Y29.4519 
G01 X49.1254 Y29.5031 
G01 X48.9775 Y29.5785 
G01 X48.8433 Y29.6760 
G01 X48.7260 Y29.7933 
G01 X48.6285 Y29.9275 
G01 X48.5531 Y30.0754 
G01 X48.5019 Y30.2332 
G01 X48.4759 Y30.3970 
G01 X48.4759 Y30.5630 
G01 X48.5019 Y30.7268 
G01 X48.5531 Y30.8846 
G01 X48.6285 Y31.0325 
G01 X48.7260 Y31.1667 
G01 X48.8433 Y31.2840 
G01 X48.9775 Y31.3815 
G01 X49.1254 Y31.4569 
G00 Z2.5400  
G00 X49.1254 Y28.9169 
G01 Z-0.0400 F254   
G01 X49.2832 Y28.9681 F508   
G01 X49.4470 Y28.9941 
G01 X49.6130 Y28.9941 
G01 X49.7768 Y28.9681 
G01 X49.9346 Y28.9169 
G01 X50.0825 Y28.8415 
G01 X50.2167 Y28.7440 
G01 X50.3340 Y28.6267 
G01 X50.3993 Y28.5369 
G01 X51.8228 Y28.5369 
G01 X64.6811 Y41.3952 
G01 X64.6811 Y42.4729 
G01 X65.4771 Y43.2689 
G01 X66.6029 Y43.2689 
G01 X67.3649 Y42.5069 
G01 X69.7951 Y42.5069 
G01 X70.5571 Y43.2689 
G01 X71.6829 Y43.2689 
G01 X72.4449 Y42.5069 
G01 X74.8751 Y42.5069 
G01 X75.6371 Y43.2689 
G01 X76.7629 Y43.2689 
G01 X77.5249 Y42.5069 
G01 X79.9551 Y42.5069 
G01 X80.7171 Y43.2689 
G01 X81.8429 Y43.2689 
G01 X82.6389 Y42.4729 
G01 X82.6389 Y41.3471 
G01 X81.8429 Y40.5511 
G01 X80.7171 Y40.5511 
G01 X79.9551 Y41.3131 
G01 X77.5249 Y41.3131 
G01 X76.7629 Y40.5511 
G01 X75.6371 Y40.5511 
G01 X74.8751 Y41.3131 
G01 X72.4449 Y41.3131 
G01 X71.6829 Y40.5511 
G01 X70.5571 Y40.5511 
G01 X69.7951 Y41.3131 
G01 X67.3649 Y41.3131 
G01 X66.6029 Y40.5511 
G01 X65.5252 Y40.5511 
G01 X52.5336 Y27.5595 
G01 X52.4505 Y27.4764 
G01 X52.3527 Y27.4110 
G01 X52.2441 Y27.3660 
G01 X52.1288 Y27.3431 
G01 X50.3993 Y27.3431 
G01 X50.3340 Y27.2533 
G01 X50.2167 Y27.1360 
G01 X50.0825 Y27.0385 
G01 X49.9346 Y26.9631 
G01 X49.7768 Y26.9119 
G01 X49.6130 Y26.8859 
G01 X49.4470 Y26.8859 
G01 X49.2832 Y26.9119 
G01 X49.1254 Y26.9631 
G01 X48.9775 Y27.0385 
G01 X48.8433 Y27.1360 
G01 X48.7260 Y27.2533 
G01 X48.6285 Y27.3875 
G01 X48.5531 Y27.5354 
G01 X48.5019 Y27.6932 
G01 X48.4759 Y27.8570 
G01 X48.4759 Y28.0230 
G01 X48.5019 Y28.1868 
G01 X48.5531 Y28.3446 
G01 X48.6285 Y28.4925 
G01 X48.7260 Y28.6267 
G01 X48.8433 Y28.7440 
G01 X48.9775 Y28.8415 
G01 X49.1254 Y28.9169 
G00 Z2.5400  
G00 X49.1254 Y26.3769 
G01 Z-0.0400 F254   
G01 X49.2832 Y26.4281 F508   
G01 X49.4470 Y26.4541 
G01 X49.6130 Y26.4541 
G01 X49.7768 Y26.4281 
G01 X49.9346 Y26.3769 
G01 X50.0825 Y26.3015 
G01 X50.2167 Y26.2040 
G01 X50.3340 Y26.0867 
G01 X50.3993 Y25.9969 
G01 X53.0928 Y25.9969 
G01 X64.6811 Y37.5852 
G01 X64.6811 Y38.6629 
G01 X65.4771 Y39.4589 
G01 X66.6029 Y39.4589 
G01 X67.3649 Y38.6969 
G01 X69.7951 Y38.6969 
G01 X70.5571 Y39.4589 
G01 X71.6829 Y39.4589 
G01 X72.4449 Y38.6969 
G01 X74.8751 Y38.6969 
G01 X75.6371 Y39.4589 
G01 X76.7629 Y39.4589 
G01 X77.5249 Y38.6969 
G01 X79.9551 Y38.6969 
G01 X80.7171 Y39.4589 
G01 X81.8429 Y39.4589 
G01 X82.6389 Y38.6629 
G01 X82.6389 Y37.5371 
G01 X81.8429 Y36.7411 
G01 X80.7171 Y36.7411 
G01 X79.9551 Y37.5031 
G01 X77.5249 Y37.5031 
G01 X76.7629 Y36.7411 
G01 X75.6371 Y36.7411 
G01 X74.8751 Y37.5031 
G01 X72.4449 Y37.5031 
G01 X71.6829 Y36.7411 
G01 X70.5571 Y36.7411 
G01 X69.7951 Y37.5031 
G01 X67.3649 Y37.5031 
G01 X66.6029 Y36.7411 
G01 X65.5252 Y36.7411 
G01 X53.7205 Y24.9364 
G01 X53.6227 Y24.8710 
G01 X53.5141 Y24.8260 
G01 X53.3988 Y24.8031 
G01 X50.3993 Y24.8031 
G01 X50.3340 Y24.7133 
G01 X50.2167 Y24.5960 
G01 X50.0825 Y24.4985 
G01 X49.9346 Y24.4231 
G01 X49.7768 Y24.3719 
G01 X49.6130 Y24.3459 
G01 X49.4470 Y24.3459 
G01 X49.2832 Y24.3719 
G01 X49.1254 Y24.4231 
G01 X48.9775 Y24.4985 
G01 X48.8433 Y24.5960 
G01 X48.7260 Y24.7133 
G01 X48.6285 Y24.8475 
G01 X48.5531 Y24.9954 
G01 X48.5019 Y25.1532 
G01 X48.4759 Y25.3170 
G01 X48.4759 Y25.4830 
G01 X48.5019 Y25.6468 
G01 X48.5531 Y25.8046 
G01 X48.6285 Y25.9525 
G01 X48.7260 Y26.0867 
G01 X48.8433 Y26.2040 
G01 X48.9775 Y26.3015 
G01 X49.1254 Y26.3769 
G00 Z2.5400  
G00 X49.1254 Y23.8369 
G01 Z-0.0400 F254   
G01 X49.2832 Y23.8881 F508   
G01 X49.4470 Y23.9141 
G01 X49.6130 Y23.9141 
G01 X49.7768 Y23.8881 
G01 X49.9346 Y23.8369 
G01 X50.0825 Y23.7615 
G01 X50.2167 Y23.6640 
G01 X50.3340 Y23.5467 
G01 X50.3993 Y23.4569 
G01 X54.3628 Y23.4569 
G01 X64.6811 Y33.7752 
G01 X64.6811 Y34.8529 
G01 X65.4771 Y35.6489 
G01 X66.6029 Y35.6489 
G01 X67.3649 Y34.8869 
G01 X69.7951 Y34.8869 
G01 X70.5571 Y35.6489 
G01 X71.6829 Y35.6489 
G01 X72.4449 Y34.8869 
G01 X74.8751 Y34.8869 
G01 X75.6371 Y35.6489 
G01 X76.7629 Y35.6489 
G01 X77.5249 Y34.8869 
G01 X79.9551 Y34.8869 
G01 X80.7171 Y35.6489 
G01 X81.8429 Y35.6489 
G01 X82.6389 Y34.8529 
G01 X82.6389 Y33.7271 
G01 X81.8429 Y32.9311 
G01 X80.7171 Y32.9311 
G01 X79.9551 Y33.6931 
G01 X77.5249 Y33.6931 
G01 X76.7629 Y32.9311 
G01 X75.6371 Y32.9311 
G01 X74.8751 Y33.6931 
G01 X72.4449 Y33.6931 
G01 X71.6829 Y32.9311 
G01 X70.5571 Y32.9311 
G01 X69.7951 Y33.6931 
G01 X67.3649 Y33.6931 
G01 X66.6029 Y32.9311 
G01 X65.5252 Y32.9311 
G01 X54.9905 Y22.3964 
G01 X54.8927 Y22.3310 
G01 X54.7841 Y22.2860 
G01 X54.6688 Y22.2631 
G01 X50.3993 Y22.2631 
G01 X50.3340 Y22.1733 
G01 X50.2167 Y22.0560 
G01 X50.0825 Y21.9585 
G01 X49.9346 Y21.8831 
G01 X49.7768 Y21.8319 
G01 X49.6130 Y21.8059 
G01 X49.4470 Y21.8059 
G01 X49.2832 Y21.8319 
G01 X49.1254 Y21.8831 
G01 X48.9775 Y21.9585 
G01 X48.8433 Y22.0560 
G01 X48.7260 Y22.1733 
G01 X48.6285 Y22.3075 
G01 X48.5531 Y22.4554 
G01 X48.5019 Y22.6132 
G01 X48.4759 Y22.7770 
G01 X48.4759 Y22.9430 
G01 X48.5019 Y23.1068 
G01 X48.5531 Y23.2646 
G01 X48.6285 Y23.4125 
G01 X48.7260 Y23.5467 
G01 X48.8433 Y23.6640 
G01 X48.9775 Y23.7615 
G01 X49.1254 Y23.8369 
G00 Z2.5400  
G00 X49.1254 Y21.2969 
G01 Z-0.0400 F254   
G01 X49.2832 Y21.3481 F508   
G01 X49.4470 Y21.3741 
G01 X49.6130 Y21.3741 
G01 X49.7768 Y21.3481 
G01 X49.9346 Y21.2969 
G01 X50.0825 Y21.2215 
G01 X50.2167 Y21.1240 
G01 X50.3340 Y21.0067 
G01 X50.3993 Y20.9169 
G01 X55.6328 Y20.9169 
G01 X64.6811 Y29.9652 
G01 X64.6811 Y31.0429 
G01 X65.4771 Y31.8389 
G01 X66.6029 Y31.8389 
G01 X67.3649 Y31.0769 
G01 X69.7951 Y31.0769 
G01 X70.5571 Y31.8389 
G01 X71.6829 Y31.8389 
G01 X72.4449 Y31.0769 
G01 X74.8751 Y31.0769 
G01 X75.6371 Y31.8389 
G01 X76.7629 Y31.8389 
G01 X77.5249 Y31.0769 
G01 X79.9551 Y31.0769 
G01 X80.7171 Y31.8389 
G01 X81.8429 Y31.8389 
G01 X82.6389 Y31.0429 
G01 X82.6389 Y29.9171 
G01 X81.8429 Y29.1211 
G01 X80.7171 Y29.1211 
G01 X79.9551 Y29.8831 
G01 X77.5249 Y29.8831 
G01 X76.7629 Y29.1211 
G01 X75.6371 Y29.1211 
G01 X74.8751 Y29.8831 
G01 X72.4449 Y29.8831 
G01 X71.6829 Y29.1211 
G01 X70.5571 Y29.1211 
G01 X69.7951 Y29.8831 
G01 X67.3649 Y29.8831 
G01 X66.6029 Y29.1211 
G01 X65.5252 Y29.1211 
G01 X56.2605 Y19.8564 
G01 X56.1627 Y19.7910 
G01 X56.0541 Y19.7460 
G01 X55.9388 Y19.7231 
G01 X50.3993 Y19.7231 
G01 X50.3340 Y19.6333 
G01 X50.2167 Y19.5160 
G01 X50.0825 Y19.4185 
G01 X49.9346 Y19.3431 
G01 X49.7768 Y19.2919 
G01 X49.6130 Y19.2659 
G01 X49.4470 Y19.2659 
G01 X49.2832 Y19.2919 
G01 X49.1254 Y19.3431 
G01 X48.9775 Y19.4185 
G01 X48.8433 Y19.5160 
G01 X48.7260 Y19.6333 
G01 X48.6285 Y19.7675 
G01 X48.5531 Y19.9154 
G01 X48.5019 Y20.0732 
G01 X48.4759 Y20.2370 
G01 X48.4759 Y20.4030 
G01 X48.5019 Y20.5668 
G01 X48.5531 Y20.7246 
G01 X48.6285 Y20.8725 
G01 X48.7260 Y21.0067 
G01 X48.8433 Y21.1240 
G01 X48.9775 Y21.2215 
G01 X49.1254 Y21.2969 
G00 Z2.5400  
G00 X49.1254 Y18.7569 
G01 Z-0.0400 F254   
G01 X49.2832 Y18.8081 F508   
G01 X49.4470 Y18.8341 
G01 X49.6130 Y18.8341 
G01 X49.7768 Y18.8081 
G01 X49.9346 Y18.7569 
G01 X50.0825 Y18.6815 
G01 X50.2167 Y18.5840 
G01 X50.3340 Y18.4667 
G01 X50.3993 Y18.3769 
G01 X56.9028 Y18.3769 
G01 X64.6811 Y26.1552 
G01 X64.6811 Y27.2329 
G01 X65.4771 Y28.0289 
G01 X66.6029 Y28.0289 
G01 X67.3649 Y27.2669 
G01 X69.7951 Y27.2669 
G01 X70.5571 Y28.0289 
G01 X71.6829 Y28.0289 
G01 X72.4449 Y27.2669 
G01 X74.8751 Y27.2669 
G01 X75.6371 Y28.0289 
G01 X76.7629 Y28.0289 
G01 X77.5249 Y27.2669 
G01 X79.9551 Y27.2669 
G01 X80.7171 Y28.0289 
G01 X81.8429 Y28.0289 
G01 X82.6389 Y27.2329 
G01 X82.6389 Y26.1071 
G01 X81.8429 Y25.3111 
G01 X80.7171 Y25.3111 
G01 X79.9551 Y26.0731 
G01 X77.5249 Y26.0731 
G01 X76.7629 Y25.3111 
G01 X75.6371 Y25.3111 
G01 X74.8751 Y26.0731 
G01 X72.4449 Y26.0731 
G01 X71.6829 Y25.3111 
G01 X70.5571 Y25.3111 
G01 X69.7951 Y26.0731 
G01 X67.3649 Y26.0731 
G01 X66.6029 Y25.3111 
G01 X65.5252 Y25.3111 
G01 X57.5305 Y17.3164 
G01 X57.4327 Y17.2510 
G01 X57.3241 Y17.2060 
G01 X57.2088 Y17.1831 
G01 X50.3993 Y17.1831 
G01 X50.3340 Y17.0933 
G01 X50.2167 Y16.9760 
G01 X50.0825 Y16.8785 
G01 X49.9346 Y16.8031 
G01 X49.7768 Y16.7519 
G01 X49.6130 Y16.7259 
G01 X49.4470 Y16.7259 
G01 X49.2832 Y16.7519 
G01 X49.1254 Y16.8031 
G01 X48.9775 Y16.8785 
G01 X48.8433 Y16.9760 
G01 X48.7260 Y17.0933 
G01 X48.6285 Y17.2275 
G01 X48.5531 Y17.3754 
G01 X48.5019 Y17.5332 
G01 X48.4759 Y17.6970 
G01 X48.4759 Y17.8630 
G01 X48.5019 Y18.0268 
G01 X48.5531 Y18.1846 
G01 X48.6285 Y18.3325 
G01 X48.7260 Y18.4667 
G01 X48.8433 Y18.5840 
G01 X48.9775 Y18.6815 
G01 X49.1254 Y18.7569 
G00 Z2.5400  
G00 X49.1254 Y16.2169 
G01 Z-0.0400 F254   
G01 X49.2832 Y16.2681 F508   
G01 X49.4470 Y16.2941 
G01 X49.6130 Y16.2941 
G01 X49.7768 Y16.2681 
G01 X49.9346 Y16.2169 
G01 X50.0825 Y16.1415 
G01 X50.2167 Y16.0440 
G01 X50.3340 Y15.9267 
G01 X50.3993 Y15.8369 
G01 X58.1728 Y15.8369 
G01 X64.6811 Y22.3452 
G01 X64.6811 Y23.4229 
G01 X65.4771 Y24.2189 
G01 X66.6029 Y24.2189 
G01 X67.3649 Y23.4569 
G01 X69.7951 Y23.4569 
G01 X70.5571 Y24.2189 
G01 X71.6829 Y24.2189 
G01 X72.4449 Y23.4569 
G01 X74.8751 Y23.4569 
G01 X75.6371 Y24.2189 
G01 X76.7629 Y24.2189 
G01 X77.5249 Y23.4569 
G01 X79.9551 Y23.4569 
G01 X80.7171 Y24.2189 
G01 X81.8429 Y24.2189 
G01 X82.6389 Y23.4229 
G01 X82.6389 Y22.2971 
G01 X81.8429 Y21.5011 
G01 X80.7171 Y21.5011 
G01 X79.9551 Y22.2631 
G01 X77.5249 Y22.2631 
G01 X76.7629 Y21.5011 
G01 X75.6371 Y21.5011 
G01 X74.8751 Y22.2631 
G01 X72.4449 Y22.2631 
G01 X71.6829 Y21.5011 
G01 X70.5571 Y21.5011 
G01 X69.7951 Y22.2631 
G01 X67.3649 Y22.2631 
G01 X66.6029 Y21.5011 
G01 X65.5252 Y21.5011 
G01 X58.8005 Y14.7764 
G01 X58.7027 Y14.7110 
G01 X58.5941 Y14.6660 
G01 X58.4788 Y14.6431 
G01 X50.3993 Y14.6431 
G01 X50.3340 Y14.5533 
G01 X50.2167 Y14.4360 
G01 X50.0825 Y14.3385 
G01 X49.9346 Y14.2631 
G01 X49.7768 Y14.2119 
G01 X49.6130 Y14.1859 
G01 X49.4470 Y14.1859 
G01 X49.2832 Y14.2119 
G01 X49.1254 Y14.2631 
G01 X48.9775 Y14.3385 
G01 X48.8433 Y14.4360 
G01 X48.7260 Y14.5533 
G01 X48.6285 Y14.6875 
G01 X48.5531 Y14.8354 
G01 X48.5019 Y14.9932 
G01 X48.4759 Y15.1570 
G01 X48.4759 Y15.3230 
G01 X48.5019 Y15.4868 
G01 X48.5531 Y15.6446 
G01 X48.6285 Y15.7925 
G01 X48.7260 Y15.9267 
G01 X48.8433 Y16.0440 
G01 X48.9775 Y16.1415 
G01 X49.1254 Y16.2169 
G00 Z2.5400  
G00 X49.1254 Y13.6769 
G01 Z-0.0400 F254   
G01 X49.2832 Y13.7281 F508   
G01 X49.4470 Y13.7541 
G01 X49.6130 Y13.7541 
G01 X49.7768 Y13.7281 
G01 X49.9346 Y13.6769 
G01 X50.0825 Y13.6015 
G01 X50.2167 Y13.5040 
G01 X50.3340 Y13.3867 
G01 X50.3993 Y13.2969 
G01 X59.4428 Y13.2969 
G01 X64.6811 Y18.5352 
G01 X64.6811 Y19.6129 
G01 X65.4771 Y20.4089 
G01 X66.6029 Y20.4089 
G01 X67.3649 Y19.6469 
G01 X69.7951 Y19.6469 
G01 X70.5571 Y20.4089 
G01 X71.6829 Y20.4089 
G01 X72.4449 Y19.6469 
G01 X74.8751 Y19.6469 
G01 X75.6371 Y20.4089 
G01 X76.7629 Y20.4089 
G01 X77.5249 Y19.6469 
G01 X79.9551 Y19.6469 
G01 X80.7171 Y20.4089 
G01 X81.8429 Y20.4089 
G01 X82.6389 Y19.6129 
G01 X82.6389 Y18.4871 
G01 X81.8429 Y17.6911 
G01 X80.7171 Y17.6911 
G01 X79.9551 Y18.4531 
G01 X77.5249 Y18.4531 
G01 X76.7629 Y17.6911 
G01 X75.6371 Y17.6911 
G01 X74.8751 Y18.4531 
G01 X72.4449 Y18.4531 
G01 X71.6829 Y17.6911 
G01 X70.5571 Y17.6911 
G01 X69.7951 Y18.4531 
G01 X67.3649 Y18.4531 
G01 X66.6029 Y17.6911 
G01 X65.5252 Y17.6911 
G01 X60.0705 Y12.2364 
G01 X59.9727 Y12.1710 
G01 X59.8641 Y12.1260 
G01 X59.7488 Y12.1031 
G01 X50.3993 Y12.1031 
G01 X50.3340 Y12.0133 
G01 X50.2167 Y11.8960 
G01 X50.0825 Y11.7985 
G01 X49.9346 Y11.7231 
G01 X49.7768 Y11.6719 
G01 X49.6130 Y11.6459 
G01 X49.4470 Y11.6459 
G01 X49.2832 Y11.6719 
G01 X49.1254 Y11.7231 
G01 X48.9775 Y11.7985 
G01 X48.8433 Y11.8960 
G01 X48.7260 Y12.0133 
G01 X48.6285 Y12.1475 
G01 X48.5531 Y12.2954 
G01 X48.5019 Y12.4532 
G01 X48.4759 Y12.6170 
G01 X48.4759 Y12.7830 
G01 X48.5019 Y12.9468 
G01 X48.5531 Y13.1046 
G01 X48.6285 Y13.2525 
G01 X48.7260 Y13.3867 
G01 X48.8433 Y13.5040 
G01 X48.9775 Y13.6015 
G01 X49.1254 Y13.6769 
G00 Z2.5400  
G00 X49.1254 Y11.1369 
G01 Z-0.0400 F254   
G01 X49.2832 Y11.1881 F508   
G01 X49.4470 Y11.2141 
G01 X49.6130 Y11.2141 
G01 X49.7768 Y11.1881 
G01 X49.9346 Y11.1369 
G01 X50.0825 Y11.0615 
G01 X50.2167 Y10.9640 
G01 X50.3340 Y10.8467 
G01 X50.3993 Y10.7569 
G01 X60.7128 Y10.7569 
G01 X64.6811 Y14.7252 
G01 X64.6811 Y15.8029 
G01 X65.4771 Y16.5989 
G01 X66.6029 Y16.5989 
G01 X67.3649 Y15.8369 
G01 X69.7951 Y15.8369 
G01 X70.5571 Y16.5989 
G01 X71.6829 Y16.5989 
G01 X72.4449 Y15.8369 
G01 X74.8751 Y15.8369 
G01 X75.6371 Y16.5989 
G01 X76.7629 Y16.5989 
G01 X77.5249 Y15.8369 
G01 X79.9551 Y15.8369 
G01 X80.7171 Y16.5989 
G01 X81.8429 Y16.5989 
G01 X82.6389 Y15.8029 
G01 X82.6389 Y14.6771 
G01 X81.8429 Y13.8811 
G01 X80.7171 Y13.8811 
G01 X79.9551 Y14.6431 
G01 X77.5249 Y14.6431 
G01 X76.7629 Y13.8811 
G01 X75.6371 Y13.8811 
G01 X74.8751 Y14.6431 
G01 X72.4449 Y14.6431 
G01 X71.6829 Y13.8811 
G01 X70.5571 Y13.8811 
G01 X69.7951 Y14.6431 
G01 X67.3649 Y14.6431 
G01 X66.6029 Y13.8811 
G01 X65.5252 Y13.8811 
G01 X61.3405 Y9.6964  
G01 X61.2427 Y9.6310  
G01 X61.1341 Y9.5860  
G01 X61.0188 Y9.5631  
G01 X50.3993 Y9.5631  
G01 X50.3340 Y9.4733  
G01 X50.2167 Y9.3560  
G01 X50.0825 Y9.2585  
G01 X49.9346 Y9.1831  
G01 X49.7768 Y9.1319  
G01 X49.6130 Y9.1059  
G01 X49.4470 Y9.1059  
G01 X49.2832 Y9.1319  
G01 X49.1254 Y9.1831  
G01 X48.9775 Y9.2585  
G01 X48.8433 Y9.3560  
G01 X48.7260 Y9.4733  
G01 X48.6285 Y9.6075  
G01 X48.5531 Y9.7554  
G01 X48.5019 Y9.9132  
G01 X48.4759 Y10.0770 
G01 X48.4759 Y10.2430 
G01 X48.5019 Y10.4068 
G01 X48.5531 Y10.5646 
G01 X48.6285 Y10.7125 
G01 X48.7260 Y10.8467 
G01 X48.8433 Y10.9640 
G01 X48.9775 Y11.0615 
G01 X49.1254 Y11.1369 
G00 Z2.5400  
G00 X49.1254 Y8.5969  
G01 Z-0.0400 F254   
G01 X49.2832 Y8.6481  F508   
G01 X49.4470 Y8.6741  
G01 X49.6130 Y8.6741  
G01 X49.7768 Y8.6481  
G01 X49.9346 Y8.5969  
G01 X50.0825 Y8.5215  
G01 X50.2167 Y8.4240  
G01 X50.3340 Y8.3067  
G01 X50.3993 Y8.2169  
G01 X61.9828 Y8.2169  
G01 X64.6811 Y10.9152 
G01 X64.6811 Y11.9929 
G01 X65.4771 Y12.7889 
G01 X66.6029 Y12.7889 
G01 X67.3649 Y12.0269 
G01 X69.7951 Y12.0269 
G01 X70.5571 Y12.7889 
G01 X71.6829 Y12.7889 
G01 X72.4449 Y12.0269 
G01 X74.8751 Y12.0269 
G01 X75.6371 Y12.7889 
G01 X76.7629 Y12.7889 
G01 X77.5249 Y12.0269 
G01 X79.9551 Y12.0269 
G01 X80.7171 Y12.7889 
G01 X81.8429 Y12.7889 
G01 X82.6389 Y11.9929 
G01 X82.6389 Y10.8671 
G01 X81.8429 Y10.0711 
G01 X80.7171 Y10.0711 
G01 X79.9551 Y10.8331 
G01 X77.5249 Y10.8331 
G01 X76.7629 Y10.0711 
G01 X75.6371 Y10.0711 
G01 X74.8751 Y10.8331 
G01 X72.4449 Y10.8331 
G01 X71.6829 Y10.0711 
G01 X70.5571 Y10.0711 
G01 X69.7951 Y10.8331 
G01 X67.3649 Y10.8331 
G01 X66.6029 Y10.0711 
G01 X65.5252 Y10.0711 
G01 X62.6105 Y7.1564  
G01 X62.5127 Y7.0910  
G01 X62.4041 Y7.0460  
G01 X62.2888 Y7.0231  
G01 X50.3993 Y7.0231  
G01 X50.3340 Y6.9333  
G01 X50.2167 Y6.8160  
G01 X50.0825 Y6.7185  
G01 X49.9346 Y6.6431  
G01 X49.7768 Y6.5919  
G01 X49.6130 Y6.5659  
G01 X49.4470 Y6.5659  
G01 X49.2832 Y6.5919  
G01 X49.1254 Y6.6431  
G01 X48.9775 Y6.7185  
G01 X48.8433 Y6.8160  
G01 X48.7260 Y6.9333  
G01 X48.6285 Y7.0675  
G01 X48.5531 Y7.2154  
G01 X48.5019 Y7.3732  
G01 X48.4759 Y7.5370  
G01 X48.4759 Y7.7030  
G01 X48.5019 Y7.8668  
G01 X48.5531 Y8.0246  
G01 X48.6285 Y8.1725  
G01 X48.7260 Y8.3067  
G01 X48.8433 Y8.4240  
G01 X48.9775 Y8.5215  
G01 X49.1254 Y8.5969  
G00 Z2.5400  
G00 X49.1254 Y6.0569  
G01 Z-0.0400 F254   
G01 X49.2832 Y6.1081  F508   
G01 X49.4470 Y6.1341  
G01 X49.6130 Y6.1341  
G01 X49.7768 Y6.1081  
G01 X49.9346 Y6.0569  
G01 X50.0825 Y5.9815  
G01 X50.2167 Y5.8840  
G01 X50.3340 Y5.7667  
G01 X50.3993 Y5.6769  
G01 X63.2528 Y5.6769  
G01 X64.6811 Y7.1052  
G01 X64.6811 Y8.1829  
G01 X65.4771 Y8.9789  
G01 X66.6029 Y8.9789  
G01 X67.3649 Y8.2169  
G01 X69.7951 Y8.2169  
G01 X70.5571 Y8.9789  
G01 X71.6829 Y8.9789  
G01 X72.4449 Y8.2169  
G01 X74.8751 Y8.2169  
G01 X75.6371 Y8.9789  
G01 X76.7629 Y8.9789  
G01 X77.5249 Y8.2169  
G01 X79.9551 Y8.2169  
G01 X80.7171 Y8.9789  
G01 X81.8429 Y8.9789  
G01 X82.6389 Y8.1829  
G01 X82.6389 Y7.0571  
G01 X81.8429 Y6.2611  
G01 X80.7171 Y6.2611  
G01 X79.9551 Y7.0231  
G01 X77.5249 Y7.0231  
G01 X76.7629 Y6.2611  
G01 X75.6371 Y6.2611  
G01 X74.8751 Y7.0231  
G01 X72.4449 Y7.0231  
G01 X71.6829 Y6.2611  
G01 X70.5571 Y6.2611  
G01 X69.7951 Y7.0231  
G01 X67.3649 Y7.0231  
G01 X66.6029 Y6.2611  
G01 X65.5252 Y6.2611  
G01 X63.8805 Y4.6164  
G01 X63.7827 Y4.5510  
G01 X63.6741 Y4.5060  
G01 X63.5588 Y4.4831  
G01 X50.3993 Y4.4831  
G01 X50.3340 Y4.3933  
G01 X50.2167 Y4.2760  
G01 X50.0825 Y4.1785  
G01 X49.9346 Y4.1031  
G01 X49.7768 Y4.0519  
G01 X49.6130 Y4.0259  
G01 X49.4470 Y4.0259  
G01 X49.2832 Y4.0519  
G01 X49.1254 Y4.1031  
G01 X48.9775 Y4.1785  
G01 X48.8433 Y4.2760  
G01 X48.7260 Y4.3933  
G01 X48.6285 Y4.5275  
G01 X48.5531 Y4.6754  
G01 X48.5019 Y4.8332  
G01 X48.4759 Y4.9970  
G01 X48.4759 Y5.1630  
G01 X48.5019 Y5.3268  
G01 X48.5531 Y5.4846  
G01 X48.6285 Y5.6325  
G01 X48.7260 Y5.7667  
G01 X48.8433 Y5.8840  
G01 X48.9775 Y5.9815  
G01 X49.1254 Y6.0569  
G00 Z2.5400  
G00 X49.1254 Y3.5169  
G01 Z-0.0400 F254   
G01 X49.2832 Y3.5681  F508   
G01 X49.4470 Y3.5941  
G01 X49.6130 Y3.5941  
G01 X49.7768 Y3.5681  
G01 X49.9346 Y3.5169  
G01 X50.0825 Y3.4415  
G01 X50.2167 Y3.3440  
G01 X50.3340 Y3.2267  
G01 X50.3993 Y3.1369  
G01 X64.5228 Y3.1369  
G01 X64.6811 Y3.2952  
G01 X64.6811 Y4.3729  
G01 X65.4771 Y5.1689  
G01 X66.6029 Y5.1689  
G01 X67.3649 Y4.4069  
G01 X69.7951 Y4.4069  
G01 X70.5571 Y5.1689  
G01 X71.6829 Y5.1689  
G01 X72.4449 Y4.4069  
G01 X74.8751 Y4.4069  
G01 X75.6371 Y5.1689  
G01 X76.7629 Y5.1689  
G01 X77.5249 Y4.4069  
G01 X79.9551 Y4.4069  
G01 X80.7171 Y5.1689  
G01 X81.8429 Y5.1689  
G01 X82.6389 Y4.3729  
G01 X82.6389 Y3.2471  
G01 X81.8429 Y2.4511  
G01 X80.7171 Y2.4511  
G01 X79.9551 Y3.2131  
G01 X77.5249 Y3.2131  
G01 X76.7629 Y2.4511  
G01 X75.6371 Y2.4511  
G01 X74.8751 Y3.2131  
G01 X72.4449 Y3.2131  
G01 X71.6829 Y2.4511  
G01 X70.5571 Y2.4511  
G01 X69.7951 Y3.2131  
G01 X67.3649 Y3.2131  
G01 X66.6029 Y2.4511  
G01 X65.5252 Y2.4511  
G01 X65.1505 Y2.0764  
G01 X65.0527 Y2.0110  
G01 X64.9441 Y1.9660  
G01 X64.8288 Y1.9431  
G01 X50.3993 Y1.9431  
G01 X50.3340 Y1.8533  
G01 X50.2167 Y1.7360  
G01 X50.0825 Y1.6385  
G01 X49.9346 Y1.5631  
G01 X49.7768 Y1.5119  
G01 X49.6130 Y1.4859  
G01 X49.4470 Y1.4859  
G01 X49.2832 Y1.5119  
G01 X49.1254 Y1.5631  
G01 X48.9775 Y1.6385  
G01 X48.8433 Y1.7360  
G01 X48.7260 Y1.8533  
G01 X48.6285 Y1.9875  
G01 X48.5531 Y2.1354  
G01 X48.5019 Y2.2932  
G01 X48.4759 Y2.4570  
G01 X48.4759 Y2.6230  
G01 X48.5019 Y2.7868  
G01 X48.5531 Y2.9446  
G01 X48.6285 Y3.0925  
G01 X48.7260 Y3.2267  
G01 X48.8433 Y3.3440  
G01 X48.9775 Y3.4415  
G01 X49.1254 Y3.5169  
G00 Z2.5400  
G00 X37.5167 Y4.2760  
G01 Z-0.0400 F254   
G01 X37.3825 Y4.1785  F508   
G01 X37.2346 Y4.1031  
G01 X37.0768 Y4.0519  
G01 X36.9130 Y4.0259  
G01 X36.7470 Y4.0259  
G01 X36.5832 Y4.0519  
G01 X36.4254 Y4.1031  
G01 X36.2775 Y4.1785  
G01 X36.1433 Y4.2760  
G01 X36.0260 Y4.3933  
G01 X35.9285 Y4.5275  
G01 X35.8531 Y4.6754  
G01 X35.8019 Y4.8332  
G01 X35.7759 Y4.9970  
G01 X35.7759 Y5.1630  
G01 X35.8019 Y5.3268  
G01 X35.8531 Y5.4846  
G01 X35.9285 Y5.6325  
G01 X36.0260 Y5.7667  
G01 X36.1433 Y5.8840  
G01 X36.2775 Y5.9815  
G01 X36.4254 Y6.0569  
G01 X36.5832 Y6.1081  
G01 X36.7470 Y6.1341  
G01 X36.9130 Y6.1341  
G01 X37.0768 Y6.1081  
G01 X37.2346 Y6.0569  
G01 X37.3825 Y5.9815  
G01 X37.5167 Y5.8840  
G01 X37.6340 Y5.7667  
G01 X37.7315 Y5.6325  
G01 X37.8069 Y5.4846  
G01 X37.8581 Y5.3268  
G01 X37.8841 Y5.1630  
G01 X37.8841 Y4.9970  
G01 X37.8581 Y4.8332  
G01 X37.8069 Y4.6754  
G01 X37.7315 Y4.5275  
G01 X37.6340 Y4.3933  
G01 X37.5167 Y4.2760  
G00 Z2.5400  
G00 X37.5167 Y9.3560  
G01 Z-0.0400 F254   
G01 X37.3825 Y9.2585  F508   
G01 X37.2346 Y9.1831  
G01 X37.0768 Y9.1319  
G01 X36.9130 Y9.1059  
G01 X36.7470 Y9.1059  
G01 X36.5832 Y9.1319  
G01 X36.4254 Y9.1831  
G01 X36.2775 Y9.2585  
G01 X36.1433 Y9.3560  
G01 X36.0260 Y9.4733  
G01 X35.9285 Y9.6075  
G01 X35.8531 Y9.7554  
G01 X35.8019 Y9.9132  
G01 X35.7759 Y10.0770 
G01 X35.7759 Y10.2430 
G01 X35.8019 Y10.4068 
G01 X35.8531 Y10.5646 
G01 X35.9285 Y10.7125 
G01 X36.0260 Y10.8467 
G01 X36.1433 Y10.9640 
G01 X36.2775 Y11.0615 
G01 X36.4254 Y11.1369 
G01 X36.5832 Y11.1881 
G01 X36.7470 Y11.2141 
G01 X36.9130 Y11.2141 
G01 X37.0768 Y11.1881 
G01 X37.2346 Y11.1369 
G01 X37.3825 Y11.0615 
G01 X37.5167 Y10.9640 
G01 X37.6340 Y10.8467 
G01 X37.7315 Y10.7125 
G01 X37.8069 Y10.5646 
G01 X37.8581 Y10.4068 
G01 X37.8841 Y10.2430 
G01 X37.8841 Y10.0770 
G01 X37.8581 Y9.9132  
G01 X37.8069 Y9.7554  
G01 X37.7315 Y9.6075  
G01 X37.6340 Y9.4733  
G01 X37.5167 Y9.3560  
G00 Z2.5400  
G00 X37.5167 Y11.8960 
G01 Z-0.0400 F254   
G01 X37.3825 Y11.7985 F508   
G01 X37.2346 Y11.7231 
G01 X37.0768 Y11.6719 
G01 X36.9130 Y11.6459 
G01 X36.7470 Y11.6459 
G01 X36.5832 Y11.6719 
G01 X36.4254 Y11.7231 
G01 X36.2775 Y11.7985 
G01 X36.1433 Y11.8960 
G01 X36.0260 Y12.0133 
G01 X35.9285 Y12.1475 
G01 X35.8531 Y12.2954 
G01 X35.8019 Y12.4532 
G01 X35.7759 Y12.6170 
G01 X35.7759 Y12.7830 
G01 X35.8019 Y12.9468 
G01 X35.8531 Y13.1046 
G01 X35.9285 Y13.2525 
G01 X36.0260 Y13.3867 
G01 X36.1433 Y13.5040 
G01 X36.2775 Y13.6015 
G01 X36.4254 Y13.6769 
G01 X36.5832 Y13.7281 
G01 X36.7470 Y13.7541 
G01 X36.9130 Y13.7541 
G01 X37.0768 Y13.7281 
G01 X37.2346 Y13.6769 
G01 X37.3825 Y13.6015 
G01 X37.5167 Y13.5040 
G01 X37.6340 Y13.3867 
G01 X37.7315 Y13.2525 
G01 X37.8069 Y13.1046 
G01 X37.8581 Y12.9468 
G01 X37.8841 Y12.7830 
G01 X37.8841 Y12.6170 
G01 X37.8581 Y12.4532 
G01 X37.8069 Y12.2954 
G01 X37.7315 Y12.1475 
G01 X37.6340 Y12.0133 
G01 X37.5167 Y11.8960 
G00 Z2.5400  
G00 X37.5167 Y14.4360 
G01 Z-0.0400 F254   
G01 X37.3825 Y14.3385 F508   
G01 X37.2346 Y14.2631 
G01 X37.0768 Y14.2119 
G01 X36.9130 Y14.1859 
G01 X36.7470 Y14.1859 
G01 X36.5832 Y14.2119 
G01 X36.4254 Y14.2631 
G01 X36.2775 Y14.3385 
G01 X36.1433 Y14.4360 
G01 X36.0260 Y14.5533 
G01 X35.9285 Y14.6875 
G01 X35.8531 Y14.8354 
G01 X35.8019 Y14.9932 
G01 X35.7759 Y15.1570 
G01 X35.7759 Y15.3230 
G01 X35.8019 Y15.4868 
G01 X35.8531 Y15.6446 
G01 X35.9285 Y15.7925 
G01 X36.0260 Y15.9267 
G01 X36.1433 Y16.0440 
G01 X36.2775 Y16.1415 
G01 X36.4254 Y16.2169 
G01 X36.5832 Y16.2681 
G01 X36.7470 Y16.2941 
G01 X36.9130 Y16.2941 
G01 X37.0768 Y16.2681 
G01 X37.2346 Y16.2169 
G01 X37.3825 Y16.1415 
G01 X37.5167 Y16.0440 
G01 X37.6340 Y15.9267 
G01 X37.7315 Y15.7925 
G01 X37.8069 Y15.6446 
G01 X37.8581 Y15.4868 
G01 X37.8841 Y15.3230 
G01 X37.8841 Y15.1570 
G01 X37.8581 Y14.9932 
G01 X37.8069 Y14.8354 
G01 X37.7315 Y14.6875 
G01 X37.6340 Y14.5533 
G01 X37.5167 Y14.4360 
G00 Z2.5400  
G00 X38.5660 Y17.0933 
G01 Z-0.0400 F254   
G01 X38.4685 Y17.2275 F508   
G01 X38.3931 Y17.3754 
G01 X38.3419 Y17.5332 
G01 X38.3159 Y17.6970 
G01 X38.3159 Y17.8630 
G01 X38.3419 Y18.0268 
G01 X38.3931 Y18.1846 
G01 X38.4685 Y18.3325 
G01 X38.5660 Y18.4667 
G01 X38.6833 Y18.5840 
G01 X38.8175 Y18.6815 
G01 X38.9654 Y18.7569 
G01 X39.1232 Y18.8081 
G01 X39.2870 Y18.8341 
G01 X39.4530 Y18.8341 
G01 X39.6168 Y18.8081 
G01 X39.7746 Y18.7569 
G01 X39.9225 Y18.6815 
G01 X40.0567 Y18.5840 
G01 X40.1740 Y18.4667 
G01 X40.2715 Y18.3325 
G01 X40.3469 Y18.1846 
G01 X40.3981 Y18.0268 
G01 X40.4241 Y17.8630 
G01 X40.4241 Y17.6970 
G01 X40.3981 Y17.5332 
G01 X40.3469 Y17.3754 
G01 X40.2715 Y17.2275 
G01 X40.1740 Y17.0933 
G01 X40.0567 Y16.9760 
G01 X39.9225 Y16.8785 
G01 X39.7746 Y16.8031 
G01 X39.6168 Y16.7519 
G01 X39.4530 Y16.7259 
G01 X39.2870 Y16.7259 
G01 X39.1232 Y16.7519 
G01 X38.9654 Y16.8031 
G01 X38.8175 Y16.8785 
G01 X38.6833 Y16.9760 
G01 X38.5660 Y17.0933 
G00 Z2.5400  
G00 X38.5660 Y19.6333 
G01 Z-0.0400 F254   
G01 X38.4685 Y19.7675 F508   
G01 X38.3931 Y19.9154 
G01 X38.3419 Y20.0732 
G01 X38.3159 Y20.2370 
G01 X38.3159 Y20.4030 
G01 X38.3419 Y20.5668 
G01 X38.3931 Y20.7246 
G01 X38.4685 Y20.8725 
G01 X38.5660 Y21.0067 
G01 X38.6833 Y21.1240 
G01 X38.8175 Y21.2215 
G01 X38.9654 Y21.2969 
G01 X39.1232 Y21.3481 
G01 X39.2870 Y21.3741 
G01 X39.4530 Y21.3741 
G01 X39.6168 Y21.3481 
G01 X39.7746 Y21.2969 
G01 X39.9225 Y21.2215 
G01 X40.0567 Y21.1240 
G01 X40.1740 Y21.0067 
G01 X40.2715 Y20.8725 
G01 X40.3469 Y20.7246 
G01 X40.3981 Y20.5668 
G01 X40.4241 Y20.4030 
G01 X40.4241 Y20.2370 
G01 X40.3981 Y20.0732 
G01 X40.3469 Y19.9154 
G01 X40.2715 Y19.7675 
G01 X40.1740 Y19.6333 
G01 X40.0567 Y19.5160 
G01 X39.9225 Y19.4185 
G01 X39.7746 Y19.3431 
G01 X39.6168 Y19.2919 
G01 X39.4530 Y19.2659 
G01 X39.2870 Y19.2659 
G01 X39.1232 Y19.2919 
G01 X38.9654 Y19.3431 
G01 X38.8175 Y19.4185 
G01 X38.6833 Y19.5160 
G01 X38.5660 Y19.6333 
G00 Z2.5400  
G00 X38.5660 Y22.1733 
G01 Z-0.0400 F254   
G01 X38.4685 Y22.3075 F508   
G01 X38.3931 Y22.4554 
G01 X38.3419 Y22.6132 
G01 X38.3159 Y22.7770 
G01 X38.3159 Y22.9430 
G01 X38.3419 Y23.1068 
G01 X38.3931 Y23.2646 
G01 X38.4685 Y23.4125 
G01 X38.5660 Y23.5467 
G01 X38.6833 Y23.6640 
G01 X38.8175 Y23.7615 
G01 X38.9654 Y23.8369 
G01 X39.1232 Y23.8881 
G01 X39.2870 Y23.9141 
G01 X39.4530 Y23.9141 
G01 X39.6168 Y23.8881 
G01 X39.7746 Y23.8369 
G01 X39.9225 Y23.7615 
G01 X40.0567 Y23.6640 
G01 X40.1740 Y23.5467 
G01 X40.2715 Y23.4125 
G01 X40.3469 Y23.2646 
G01 X40.3981 Y23.1068 
G01 X40.4241 Y22.9430 
G01 X40.4241 Y22.7770 
G01 X40.3981 Y22.6132 
G01 X40.3469 Y22.4554 
G01 X40.2715 Y22.3075 
G01 X40.1740 Y22.1733 
G01 X40.0567 Y22.0560 
G01 X39.9225 Y21.9585 
G01 X39.7746 Y21.8831 
G01 X39.6168 Y21.8319 
G01 X39.4530 Y21.8059 
G01 X39.2870 Y21.8059 
G01 X39.1232 Y21.8319 
G01 X38.9654 Y21.8831 
G01 X38.8175 Y21.9585 
G01 X38.6833 Y22.0560 
G01 X38.5660 Y22.1733 
G00 Z2.5400  
G00 X41.1060 Y22.1733 
G01 Z-0.0400 F254   
G01 X41.0085 Y22.3075 F508   
G01 X40.9331 Y22.4554 
G01 X40.8819 Y22.6132 
G01 X40.8559 Y22.7770 
G01 X40.8559 Y22.9430 
G01 X40.8819 Y23.1068 
G01 X40.9331 Y23.2646 
G01 X41.0085 Y23.4125 
G01 X41.1060 Y23.5467 
G01 X41.2233 Y23.6640 
G01 X41.3575 Y23.7615 
G01 X41.5054 Y23.8369 
G01 X41.6632 Y23.8881 
G01 X41.8270 Y23.9141 
G01 X41.9930 Y23.9141 
G01 X42.1568 Y23.8881 
G01 X42.3146 Y23.8369 
G01 X42.4625 Y23.7615 
G01 X42.5967 Y23.6640 
G01 X42.7140 Y23.5467 
G01 X42.8115 Y23.4125 
G01 X42.8869 Y23.2646 
G01 X42.9381 Y23.1068 
G01 X42.9641 Y22.9430 
G01 X42.9641 Y22.7770 
G01 X42.9381 Y22.6132 
G01 X42.8869 Y22.4554 
G01 X42.8115 Y22.3075 
G01 X42.7140 Y22.1733 
G01 X42.5967 Y22.0560 
G01 X42.4625 Y21.9585 
G01 X42.3146 Y21.8831 
G01 X42.1568 Y21.8319 
G01 X41.9930 Y21.8059 
G01 X41.8270 Y21.8059 
G01 X41.6632 Y21.8319 
G01 X41.5054 Y21.8831 
G01 X41.3575 Y21.9585 
G01 X41.2233 Y22.0560 
G01 X41.1060 Y22.1733 
G00 Z2.5400  
G00 X41.2233 Y21.1240 
G01 Z-0.0400 F254   
G01 X41.3575 Y21.2215 F508   
G01 X41.5054 Y21.2969 
G01 X41.6632 Y21.3481 
G01 X41.8270 Y21.3741 
G01 X41.9930 Y21.3741 
G01 X42.1568 Y21.3481 
G01 X42.3146 Y21.2969 
G01 X42.4625 Y21.2215 
G01 X42.5967 Y21.1240 
G01 X42.7140 Y21.0067 
G01 X42.8115 Y20.8725 
G01 X42.8869 Y20.7246 
G01 X42.9381 Y20.5668 
G01 X42.9641 Y20.4030 
G01 X42.9641 Y20.2370 
G01 X42.9381 Y20.0732 
G01 X42.8869 Y19.9154 
G01 X42.8115 Y19.7675 
G01 X42.7140 Y19.6333 
G01 X42.5967 Y19.5160 
G01 X42.4625 Y19.4185 
G01 X42.3146 Y19.3431 
G01 X42.1568 Y19.2919 
G01 X41.9930 Y19.2659 
G01 X41.8270 Y19.2659 
G01 X41.6632 Y19.2919 
G01 X41.5054 Y19.3431 
G01 X41.3575 Y19.4185 
G01 X41.2233 Y19.5160 
G01 X41.1060 Y19.6333 
G01 X41.0085 Y19.7675 
G01 X40.9331 Y19.9154 
G01 X40.8819 Y20.0732 
G01 X40.8559 Y20.2370 
G01 X40.8559 Y20.4030 
G01 X40.8819 Y20.5668 
G01 X40.9331 Y20.7246 
G01 X41.0085 Y20.8725 
G01 X41.1060 Y21.0067 
G01 X41.2233 Y21.1240 
G00 Z2.5400  
G00 X41.2233 Y18.5840 
G01 Z-0.0400 F254   
G01 X41.3575 Y18.6815 F508   
G01 X41.5054 Y18.7569 
G01 X41.6632 Y18.8081 
G01 X41.8270 Y18.8341 
G01 X41.9930 Y18.8341 
G01 X42.1568 Y18.8081 
G01 X42.3146 Y18.7569 
G01 X42.4625 Y18.6815 
G01 X42.5967 Y18.5840 
G01 X42.7140 Y18.4667 
G01 X42.8115 Y18.3325 
G01 X42.8869 Y18.1846 
G01 X42.9381 Y18.0268 
G01 X42.9641 Y17.8630 
G01 X42.9641 Y17.6970 
G01 X42.9381 Y17.5332 
G01 X42.8869 Y17.3754 
G01 X42.8115 Y17.2275 
G01 X42.7140 Y17.0933 
G01 X42.5967 Y16.9760 
G01 X42.4625 Y16.8785 
G01 X42.3146 Y16.8031 
G01 X42.1568 Y16.7519 
G01 X41.9930 Y16.7259 
G01 X41.8270 Y16.7259 
G01 X41.6632 Y16.7519 
G01 X41.5054 Y16.8031 
G01 X41.3575 Y16.8785 
G01 X41.2233 Y16.9760 
G01 X41.1060 Y17.0933 
G01 X41.0085 Y17.2275 
G01 X40.9331 Y17.3754 
G01 X40.8819 Y17.5332 
G01 X40.8559 Y17.6970 
G01 X40.8559 Y17.8630 
G01 X40.8819 Y18.0268 
G01 X40.9331 Y18.1846 
G01 X41.0085 Y18.3325 
G01 X41.1060 Y18.4667 
G01 X41.2233 Y18.5840 
G00 Z2.5400  
G00 X41.2233 Y24.5960 
G01 Z-0.0400 F254   
G01 X41.1060 Y24.7133 F508   
G01 X41.0085 Y24.8475 
G01 X40.9331 Y24.9954 
G01 X40.8819 Y25.1532 
G01 X40.8559 Y25.3170 
G01 X40.8559 Y25.4830 
G01 X40.8819 Y25.6468 
G01 X40.9331 Y25.8046 
G01 X41.0085 Y25.9525 
G01 X41.1060 Y26.0867 
G01 X41.2233 Y26.2040 
G01 X41.3575 Y26.3015 
G01 X41.5054 Y26.3769 
G01 X41.6632 Y26.4281 
G01 X41.8270 Y26.4541 
G01 X41.9930 Y26.4541 
G01 X42.1568 Y26.4281 
G01 X42.3146 Y26.3769 
G01 X42.4625 Y26.3015 
G01 X42.5967 Y26.2040 
G01 X42.7140 Y26.0867 
G01 X42.8115 Y25.9525 
G01 X42.8869 Y25.8046 
G01 X42.9381 Y25.6468 
G01 X42.9641 Y25.4830 
G01 X42.9641 Y25.3170 
G01 X42.9381 Y25.1532 
G01 X42.8869 Y24.9954 
G01 X42.8115 Y24.8475 
G01 X42.7140 Y24.7133 
G01 X42.5967 Y24.5960 
G01 X42.4625 Y24.4985 
G01 X42.3146 Y24.4231 
G01 X42.1568 Y24.3719 
G01 X41.9930 Y24.3459 
G01 X41.8270 Y24.3459 
G01 X41.6632 Y24.3719 
G01 X41.5054 Y24.4231 
G01 X41.3575 Y24.4985 
G01 X41.2233 Y24.5960 
G00 Z2.5400  
G00 X40.0567 Y24.5960 
G01 Z-0.0400 F254   
G01 X39.9225 Y24.4985 F508   
G01 X39.7746 Y24.4231 
G01 X39.6168 Y24.3719 
G01 X39.4530 Y24.3459 
G01 X39.2870 Y24.3459 
G01 X39.1232 Y24.3719 
G01 X38.9654 Y24.4231 
G01 X38.8175 Y24.4985 
G01 X38.6833 Y24.5960 
G01 X38.5660 Y24.7133 
G01 X38.4685 Y24.8475 
G01 X38.3931 Y24.9954 
G01 X38.3419 Y25.1532 
G01 X38.3159 Y25.3170 
G01 X38.3159 Y25.4830 
G01 X38.3419 Y25.6468 
G01 X38.3931 Y25.8046 
G01 X38.4685 Y25.9525 
G01 X38.5660 Y26.0867 
G01 X38.6833 Y26.2040 
G01 X38.8175 Y26.3015 
G01 X38.9654 Y26.3769 
G01 X39.1232 Y26.4281 
G01 X39.2870 Y26.4541 
G01 X39.4530 Y26.4541 
G01 X39.6168 Y26.4281 
G01 X39.7746 Y26.3769 
G01 X39.9225 Y26.3015 
G01 X40.0567 Y26.2040 
G01 X40.1740 Y26.0867 
G01 X40.2715 Y25.9525 
G01 X40.3469 Y25.8046 
G01 X40.3981 Y25.6468 
G01 X40.4241 Y25.4830 
G01 X40.4241 Y25.3170 
G01 X40.3981 Y25.1532 
G01 X40.3469 Y24.9954 
G01 X40.2715 Y24.8475 
G01 X40.1740 Y24.7133 
G01 X40.0567 Y24.5960 
G00 Z2.5400  
G00 X40.0567 Y27.1360 
G01 Z-0.0400 F254   
G01 X39.9225 Y27.0385 F508   
G01 X39.7746 Y26.9631 
G01 X39.6168 Y26.9119 
G01 X39.4530 Y26.8859 
G01 X39.2870 Y26.8859 
G01 X39.1232 Y26.9119 
G01 X38.9654 Y26.9631 
G01 X38.8175 Y27.0385 
G01 X38.6833 Y27.1360 
G01 X38.5660 Y27.2533 
G01 X38.4685 Y27.3875 
G01 X38.3931 Y27.5354 
G01 X38.3419 Y27.6932 
G01 X38.3159 Y27.8570 
G01 X38.3159 Y28.0230 
G01 X38.3419 Y28.1868 
G01 X38.3931 Y28.3446 
G01 X38.4685 Y28.4925 
G01 X38.5660 Y28.6267 
G01 X38.6833 Y28.7440 
G01 X38.8175 Y28.8415 
G01 X38.9654 Y28.9169 
G01 X39.1232 Y28.9681 
G01 X39.2870 Y28.9941 
G01 X39.4530 Y28.9941 
G01 X39.6168 Y28.9681 
G01 X39.7746 Y28.9169 
G01 X39.9225 Y28.8415 
G01 X40.0567 Y28.7440 
G01 X40.1740 Y28.6267 
G01 X40.2715 Y28.4925 
G01 X40.3469 Y28.3446 
G01 X40.3981 Y28.1868 
G01 X40.4241 Y28.0230 
G01 X40.4241 Y27.8570 
G01 X40.3981 Y27.6932 
G01 X40.3469 Y27.5354 
G01 X40.2715 Y27.3875 
G01 X40.1740 Y27.2533 
G01 X40.0567 Y27.1360 
G00 Z2.5400  
G00 X41.1060 Y27.2533 
G01 Z-0.0400 F254   
G01 X41.0085 Y27.3875 F508   
G01 X40.9331 Y27.5354 
G01 X40.8819 Y27.6932 
G01 X40.8559 Y27.8570 
G01 X40.8559 Y28.0230 
G01 X40.8819 Y28.1868 
G01 X40.9331 Y28.3446 
G01 X41.0085 Y28.4925 
G01 X41.1060 Y28.6267 
G01 X41.2233 Y28.7440 
G01 X41.3575 Y28.8415 
G01 X41.5054 Y28.9169 
G01 X41.6632 Y28.9681 
G01 X41.8270 Y28.9941 
G01 X41.9930 Y28.9941 
G01 X42.1568 Y28.9681 
G01 X42.3146 Y28.9169 
G01 X42.4625 Y28.8415 
G01 X42.5967 Y28.7440 
G01 X42.7140 Y28.6267 
G01 X42.8115 Y28.4925 
G01 X42.8869 Y28.3446 
G01 X42.9381 Y28.1868 
G01 X42.9641 Y28.0230 
G01 X42.9641 Y27.8570 
G01 X42.9381 Y27.6932 
G01 X42.8869 Y27.5354 
G01 X42.8115 Y27.3875 
G01 X42.7140 Y27.2533 
G01 X42.5967 Y27.1360 
G01 X42.4625 Y27.0385 
G01 X42.3146 Y26.9631 
G01 X42.1568 Y26.9119 
G01 X41.9930 Y26.8859 
G01 X41.8270 Y26.8859 
G01 X41.6632 Y26.9119 
G01 X41.5054 Y26.9631 
G01 X41.3575 Y27.0385 
G01 X41.2233 Y27.1360 
G01 X41.1060 Y27.2533 
G00 Z2.5400  
G00 X41.1060 Y29.7933 
G01 Z-0.0400 F254   
G01 X41.0085 Y29.9275 F508   
G01 X40.9331 Y30.0754 
G01 X40.8819 Y30.2332 
G01 X40.8559 Y30.3970 
G01 X40.8559 Y30.5630 
G01 X40.8819 Y30.7268 
G01 X40.9331 Y30.8846 
G01 X41.0085 Y31.0325 
G01 X41.1060 Y31.1667 
G01 X41.2233 Y31.2840 
G01 X41.3575 Y31.3815 
G01 X41.5054 Y31.4569 
G01 X41.6632 Y31.5081 
G01 X41.8270 Y31.5341 
G01 X41.9930 Y31.5341 
G01 X42.1568 Y31.5081 
G01 X42.3146 Y31.4569 
G01 X42.4625 Y31.3815 
G01 X42.5967 Y31.2840 
G01 X42.7140 Y31.1667 
G01 X42.8115 Y31.0325 
G01 X42.8869 Y30.8846 
G01 X42.9381 Y30.7268 
G01 X42.9641 Y30.5630 
G01 X42.9641 Y30.3970 
G01 X42.9381 Y30.2332 
G01 X42.8869 Y30.0754 
G01 X42.8115 Y29.9275 
G01 X42.7140 Y29.7933 
G01 X42.5967 Y29.6760 
G01 X42.4625 Y29.5785 
G01 X42.3146 Y29.5031 
G01 X42.1568 Y29.4519 
G01 X41.9930 Y29.4259 
G01 X41.8270 Y29.4259 
G01 X41.6632 Y29.4519 
G01 X41.5054 Y29.5031 
G01 X41.3575 Y29.5785 
G01 X41.2233 Y29.6760 
G01 X41.1060 Y29.7933 
G00 Z2.5400  
G00 X40.1740 Y29.7933 
G01 Z-0.0400 F254   
G01 X40.0567 Y29.6760 F508   
G01 X39.9225 Y29.5785 
G01 X39.7746 Y29.5031 
G01 X39.6168 Y29.4519 
G01 X39.4530 Y29.4259 
G01 X39.2870 Y29.4259 
G01 X39.1232 Y29.4519 
G01 X38.9654 Y29.5031 
G01 X38.8175 Y29.5785 
G01 X38.6833 Y29.6760 
G01 X38.5660 Y29.7933 
G01 X38.4685 Y29.9275 
G01 X38.3931 Y30.0754 
G01 X38.3419 Y30.2332 
G01 X38.3159 Y30.3970 
G01 X38.3159 Y30.5630 
G01 X38.3419 Y30.7268 
G01 X38.3931 Y30.8846 
G01 X38.4685 Y31.0325 
G01 X38.5660 Y31.1667 
G01 X38.6833 Y31.2840 
G01 X38.8175 Y31.3815 
G01 X38.9654 Y31.4569 
G01 X39.1232 Y31.5081 
G01 X39.2870 Y31.5341 
G01 X39.4530 Y31.5341 
G01 X39.6168 Y31.5081 
G01 X39.7746 Y31.4569 
G01 X39.9225 Y31.3815 
G01 X40.0567 Y31.2840 
G01 X40.1740 Y31.1667 
G01 X40.2715 Y31.0325 
G01 X40.3469 Y30.8846 
G01 X40.3981 Y30.7268 
G01 X40.4241 Y30.5630 
G01 X40.4241 Y30.3970 
G01 X40.3981 Y30.2332 
G01 X40.3469 Y30.0754 
G01 X40.2715 Y29.9275 
G01 X40.1740 Y29.7933 
G00 Z2.5400  
G00 X40.0567 Y32.2160 
G01 Z-0.0400 F254   
G01 X39.9225 Y32.1185 F508   
G01 X39.7746 Y32.0431 
G01 X39.6168 Y31.9919 
G01 X39.4530 Y31.9659 
G01 X39.2870 Y31.9659 
G01 X39.1232 Y31.9919 
G01 X38.9654 Y32.0431 
G01 X38.8175 Y32.1185 
G01 X38.6833 Y32.2160 
G01 X38.5660 Y32.3333 
G01 X38.4685 Y32.4675 
G01 X38.3931 Y32.6154 
G01 X38.3419 Y32.7732 
G01 X38.3159 Y32.9370 
G01 X38.3159 Y33.1030 
G01 X38.3419 Y33.2668 
G01 X38.3931 Y33.4246 
G01 X38.4685 Y33.5725 
G01 X38.5660 Y33.7067 
G01 X38.6833 Y33.8240 
G01 X38.8175 Y33.9215 
G01 X38.9654 Y33.9969 
G01 X39.1232 Y34.0481 
G01 X39.2870 Y34.0741 
G01 X39.4530 Y34.0741 
G01 X39.6168 Y34.0481 
G01 X39.7746 Y33.9969 
G01 X39.9225 Y33.9215 
G01 X40.0567 Y33.8240 
G01 X40.1740 Y33.7067 
G01 X40.2715 Y33.5725 
G01 X40.3469 Y33.4246 
G01 X40.3981 Y33.2668 
G01 X40.4241 Y33.1030 
G01 X40.4241 Y32.9370 
G01 X40.3981 Y32.7732 
G01 X40.3469 Y32.6154 
G01 X40.2715 Y32.4675 
G01 X40.1740 Y32.3333 
G01 X40.0567 Y32.2160 
G00 Z2.5400  
G00 X41.1060 Y32.3333 
G01 Z-0.0400 F254   
G01 X41.0085 Y32.4675 F508   
G01 X40.9331 Y32.6154 
G01 X40.8819 Y32.7732 
G01 X40.8559 Y32.9370 
G01 X40.8559 Y33.1030 
G01 X40.8819 Y33.2668 
G01 X40.9331 Y33.4246 
G01 X41.0085 Y33.5725 
G01 X41.1060 Y33.7067 
G01 X41.2233 Y33.8240 
G01 X41.3575 Y33.9215 
G01 X41.5054 Y33.9969 
G01 X41.6632 Y34.0481 
G01 X41.8270 Y34.0741 
G01 X41.9930 Y34.0741 
G01 X42.1568 Y34.0481 
G01 X42.3146 Y33.9969 
G01 X42.4625 Y33.9215 
G01 X42.5967 Y33.8240 
G01 X42.7140 Y33.7067 
G01 X42.8115 Y33.5725 
G01 X42.8869 Y33.4246 
G01 X42.9381 Y33.2668 
G01 X42.9641 Y33.1030 
G01 X42.9641 Y32.9370 
G01 X42.9381 Y32.7732 
G01 X42.8869 Y32.6154 
G01 X42.8115 Y32.4675 
G01 X42.7140 Y32.3333 
G01 X42.5967 Y32.2160 
G01 X42.4625 Y32.1185 
G01 X42.3146 Y32.0431 
G01 X42.1568 Y31.9919 
G01 X41.9930 Y31.9659 
G01 X41.8270 Y31.9659 
G01 X41.6632 Y31.9919 
G01 X41.5054 Y32.0431 
G01 X41.3575 Y32.1185 
G01 X41.2233 Y32.2160 
G01 X41.1060 Y32.3333 
G00 Z2.5400  
G00 Z12.7000 
M05
M02
